; generated by PrusaSlicer 2.6.0+win64 on 2023-08-04 at 04:05:08 UTC

; 

; external perimeters extrusion width = 0.42mm
; perimeters extrusion width = 0.44mm
; infill extrusion width = 0.44mm
; solid infill extrusion width = 0.44mm
; top infill extrusion width = 0.40mm
; first layer extrusion width = 0.42mm

M201 X500 Y500 Z100 E5000 ; sets maximum accelerations, mm/sec^2
M203 X500 Y500 Z10 E60 ; sets maximum feedrates, mm / sec
M204 S500 T1000 ; sets acceleration (S) and retract acceleration (R), mm/sec^2
M205 X8.00 Y8.00 Z0.40 E5.00 ; sets the jerk limits, mm/sec
M205 S0 T0 ; sets the minimum extruding and travel feed rate, mm/sec
;TYPE:Custom
G90 ; use absolute coordinates
M83 ; extruder relative mode
M104 S150 ; set temporary nozzle temp to prevent oozing during homing
M140 S60 ; set final bed temp
G4 S30 ; allow partial nozzle warmup
G28 ; home all axis
G1 Z50 F240
G1 X2.0 Y10 F3000
M104 S210 ; set final nozzle temp
M190 S60 ; wait for bed temp to stabilize
M109 S210 ; wait for nozzle temp to stabilize
G1 Z0.28 F240
G92 E0
G1 X2.0 Y140 E10 F1500 ; prime the nozzle
G1 X2.3 Y140 F5000
G92 E0
G1 X2.3 Y10 E10 F1200 ; prime the nozzle
G92 E0
G21 ; set units to millimeters
G90 ; use absolute coordinates
M83 ; use relative distances for extrusion
; Filament gcode
M107
;LAYER_CHANGE
;Z:0.2
;HEIGHT:0.2
;BEFORE_LAYER_CHANGE
G92 E0
;0.2


G1 E-6 F3600
G1 Z.2 F9000
;AFTER_LAYER_CHANGE
;0.2
G1 X144.874 Y144.311
G1 E6 F2400
M204 S500
;TYPE:Skirt/Brim
;WIDTH:0.42
G1 F2850
G1 X146.486 Y143.495 E.05665
G1 X147.5 Y143.369 E.03204
G1 X162.5 Y143.369 E.47031
G1 X164.263 Y143.764 E.05665
G1 X165.689 Y144.874 E.05666
G1 X166.505 Y146.486 E.05665
G1 X166.631 Y147.5 E.03204
G1 X166.631 Y162.5 E.47031
G1 X166.236 Y164.263 E.05665
G1 X165.126 Y165.689 E.05666
G1 X163.514 Y166.505 E.05665
G1 X162.5 Y166.631 E.03204
G1 X147.5 Y166.631 E.47031
G1 X145.737 Y166.236 E.05665
G1 X144.311 Y165.126 E.05666
G1 X143.495 Y163.514 E.05665
G1 X143.369 Y162.5 E.03204
G1 X143.369 Y147.5 E.47031
G1 X143.764 Y145.737 E.05665
G1 X144.837 Y144.358 E.05478
G1 X145.146 Y144.616 F9000
G1 F2850
G1 X145.242 Y144.501 E.0047
G1 X147.5 Y143.746 E.07465
G1 X162.5 Y143.746 E.47031
G1 X164.176 Y144.141 E.05399
G1 X165.499 Y145.242 E.05397
G1 X166.254 Y147.5 E.07465
G1 X166.254 Y162.5 E.47031
G1 X165.859 Y164.176 E.05399
G1 X164.758 Y165.499 E.05397
G1 X162.5 Y166.254 E.07465
G1 X147.5 Y166.254 E.47031
G1 X145.824 Y165.859 E.05399
G1 X144.501 Y164.758 E.05397
G1 X143.746 Y162.5 E.07465
G1 X143.746 Y147.5 E.47031
G1 X144.141 Y145.824 E.05399
G1 X145.108 Y144.662 E.0474
G1 X145.405 Y144.929 F9000
G1 F2850
G1 X145.607 Y144.703 E.0095
G1 X147.5 Y144.123 E.06208
G1 X162.5 Y144.123 E.47031
G1 X164.083 Y144.517 E.05115
G1 X165.297 Y145.607 E.05116
G1 X165.877 Y147.5 E.06208
G1 X165.877 Y162.5 E.47031
G1 X165.483 Y164.083 E.05115
G1 X164.393 Y165.297 E.05116
G1 X162.5 Y165.877 E.06208
G1 X147.5 Y165.877 E.47031
G1 X145.917 Y165.483 E.05115
G1 X144.703 Y164.393 E.05116
G1 X144.123 Y162.5 E.06208
G1 X144.123 Y147.5 E.47031
G1 X144.517 Y145.917 E.05115
G1 X145.365 Y144.973 E.03979
; printing object calibration cube id:0 copy 0
G1 E-4.2 F3600
;WIPE_START
G1 F7200
G1 X145.607 Y144.703 E-.17223
G1 X147.5 Y144.123 E-.94043
G1 X148.947 Y144.123 E-.68734
;WIPE_END
G1 X160.803 Y161.336 F9000
G1 E6 F2400
;TYPE:Perimeter
;WIDTH:0.419999
G1 F2850
G1 X148.664 Y161.336 E.38061
G1 X148.664 Y148.664 E.39732
G1 X161.336 Y148.664 E.39732
G1 X161.336 Y161.336 E.39732
G1 X160.863 Y161.336 E.01483
G1 X161.293 Y161.713 F9000
G1 F2850
G1 X148.287 Y161.713 E.40779
G1 X148.287 Y148.287 E.42096
G1 X161.713 Y148.287 E.42096
G1 X161.713 Y161.713 E.42096
G1 X161.353 Y161.713 E.01129
G1 X162.09 Y162.09 F9000
;TYPE:External perimeter
G1 F2850
G1 X147.91 Y162.09 E.4446
G1 X147.91 Y147.91 E.4446
G1 X162.09 Y147.91 E.4446
G1 X162.09 Y162.03 E.44272
G1 X161.704 Y161.986 F9000
G1 E-4.2 F3600
;WIPE_START
G1 F7200
G1 X158.301 Y162.046 E-1.8
;WIPE_END
G1 X161.234 Y149.544 F9000
G1 E6 F2400
;TYPE:Solid infill
;WIDTH:0.427394
G1 F2850
G1 X160.626 Y148.936 E.02749
G1 X160.082 Y148.936 E.01739
G1 X161.064 Y149.918 E.0444
G1 X161.064 Y150.462 E.01739
G1 X159.538 Y148.936 E.06899
G1 X158.995 Y148.936 E.01736
G1 X161.064 Y151.005 E.09354
G1 X161.064 Y151.549 E.01739
G1 X158.451 Y148.936 E.11814
G1 X157.907 Y148.936 E.01739
G1 X161.064 Y152.093 E.14273
G1 X161.064 Y152.637 E.01739
G1 X157.363 Y148.936 E.16733
G1 X156.82 Y148.936 E.01736
G1 X161.064 Y153.18 E.19188
G1 X161.064 Y153.724 E.01739
G1 X156.276 Y148.936 E.21647
G1 X155.732 Y148.936 E.01739
G1 X161.064 Y154.268 E.24107
G1 X161.064 Y154.812 E.01739
G1 X155.188 Y148.936 E.26566
G1 X154.645 Y148.936 E.01736
G1 X161.064 Y155.355 E.29021
G1 X161.064 Y155.899 E.01739
G1 X154.101 Y148.936 E.31481
G1 X153.557 Y148.936 E.01739
G1 X161.064 Y156.443 E.3394
G1 X161.064 Y156.986 E.01736
G1 X153.014 Y148.936 E.36395
G1 X152.47 Y148.936 E.01739
G1 X161.064 Y157.53 E.38855
G1 X161.064 Y158.074 E.01739
G1 X151.926 Y148.936 E.41314
G1 X151.382 Y148.936 E.01739
G1 X161.064 Y158.618 E.43773
G1 X161.064 Y159.161 E.01736
G1 X150.839 Y148.936 E.46228
G1 X150.295 Y148.936 E.01739
G1 X161.064 Y159.705 E.48688
G1 X161.064 Y160.249 E.01739
G1 X149.751 Y148.936 E.51147
G1 X149.207 Y148.936 E.01739
G1 X161.064 Y160.793 E.53607
G1 X161.064 Y161.064 E.00866
G1 X160.792 Y161.064 E.0087
G1 X148.936 Y149.208 E.53602
G1 X148.936 Y149.751 E.01736
G1 X160.249 Y161.064 E.51147
G1 X159.705 Y161.064 E.01739
G1 X148.936 Y150.295 E.48688
G1 X148.936 Y150.839 E.01739
G1 X159.161 Y161.064 E.46228
G1 X158.618 Y161.064 E.01736
G1 X148.936 Y151.382 E.43773
G1 X148.936 Y151.926 E.01739
G1 X158.074 Y161.064 E.41314
G1 X157.53 Y161.064 E.01739
G1 X148.936 Y152.47 E.38855
G1 X148.936 Y153.014 E.01739
G1 X156.986 Y161.064 E.36395
G1 X156.443 Y161.064 E.01736
G1 X148.936 Y153.557 E.3394
G1 X148.936 Y154.101 E.01739
G1 X155.899 Y161.064 E.31481
G1 X155.355 Y161.064 E.01739
G1 X148.936 Y154.645 E.29021
G1 X148.936 Y155.189 E.01739
G1 X154.811 Y161.064 E.26562
G1 X154.268 Y161.064 E.01736
G1 X148.936 Y155.732 E.24107
G1 X148.936 Y156.276 E.01739
G1 X153.724 Y161.064 E.21647
G1 X153.18 Y161.064 E.01739
G1 X148.936 Y156.82 E.19188
G1 X148.936 Y157.363 E.01736
G1 X152.637 Y161.064 E.16733
G1 X152.093 Y161.064 E.01739
G1 X148.936 Y157.907 E.14273
G1 X148.936 Y158.451 E.01739
G1 X151.549 Y161.064 E.11814
G1 X151.005 Y161.064 E.01739
G1 X148.936 Y158.995 E.09354
G1 X148.936 Y159.538 E.01736
G1 X150.462 Y161.064 E.06899
G1 X149.918 Y161.064 E.01739
G1 X148.936 Y160.082 E.0444
G1 X148.936 Y160.626 E.01739
G1 X149.544 Y161.234 E.02749
; stop printing object calibration cube id:0 copy 0
M106 S255
;LAYER_CHANGE
;Z:0.4
;HEIGHT:0.2
;BEFORE_LAYER_CHANGE
G92 E0
;0.4


G1 E-4.2 F3600
;WIPE_START
G1 F7200
G1 X148.936 Y160.626 E-.40842
G1 X148.936 Y160.082 E-.2584
G1 X149.918 Y161.064 E-.65966
G1 X150.462 Y161.064 E-.2584
G1 X150.142 Y160.744 E-.21512
;WIPE_END
G1 Z.4 F9000
;AFTER_LAYER_CHANGE
;0.4
M104 S205 ; set temperature
; printing object calibration cube id:0 copy 0
G1 X160.951 Y161.506
G1 E6 F2400
;TYPE:Perimeter
;WIDTH:0.439999
G1 F3600
G1 X148.494 Y161.506 E.4113
G1 X148.494 Y148.494 E.42962
G1 X161.506 Y148.494 E.42962
G1 X161.506 Y161.506 E.42962
G1 X161.011 Y161.506 E.01634
G1 X161.463 Y161.903 F9000
G1 F3600
G1 X148.097 Y161.903 E.44131
G1 X148.097 Y148.097 E.45584
G1 X161.903 Y148.097 E.45584
G1 X161.903 Y161.903 E.45584
G1 X161.523 Y161.903 E.01255
G1 X162.29 Y162.29 F9000
;TYPE:External perimeter
;WIDTH:0.419999
G1 F3000
G1 X147.71 Y162.29 E.45714
G1 X147.71 Y147.71 E.45714
G1 X162.29 Y147.71 E.45714
G1 X162.29 Y162.23 E.45526
G1 X161.904 Y162.186 F9000
G1 E-4.2 F3600
;WIPE_START
G1 F7200
G1 X158.501 Y162.246 E-1.8
;WIPE_END
G1 X148.888 Y148.812 F9000
G1 E6 F2400
;TYPE:Solid infill
;WIDTH:0.53634
G1 F1200
G1 X148.844 Y148.769 E.00252
G1 X148.785 Y148.785 E.00251
G1 X148.769 Y148.844 E.00251
G1 X148.812 Y148.888 E.00252
G1 X148.872 Y148.872 E.00255
;WIDTH:0.439999
G1 X148.78 Y149.506 E.02115
G1 X149.506 Y148.78 E.0339
G1 X150.068 Y148.78 E.01856
G1 X148.78 Y150.068 E.06014
G1 X148.78 Y150.629 E.01852
G1 X150.629 Y148.78 E.08634
G1 X151.191 Y148.78 E.01856
G1 X148.78 Y151.191 E.11258
G1 X148.78 Y151.752 E.01852
G1 X151.752 Y148.78 E.13877
G1 X152.314 Y148.78 E.01856
G1 X148.78 Y152.314 E.16501
G1 X148.78 Y152.875 E.01852
G1 X152.875 Y148.78 E.19121
G1 X153.437 Y148.78 E.01856
G1 X148.78 Y153.437 E.21745
G1 X148.78 Y153.999 E.01856
G1 X153.999 Y148.78 E.24369
G1 X154.56 Y148.78 E.01852
G1 X148.78 Y154.56 E.26989
G1 X148.78 Y155.122 E.01856
G1 X155.122 Y148.78 E.29613
G1 X155.683 Y148.78 E.01852
G1 X148.78 Y155.683 E.32232
G1 X148.78 Y156.245 E.01856
G1 X156.245 Y148.78 E.34857
G1 X156.806 Y148.78 E.01852
G1 X148.78 Y156.806 E.37476
G1 X148.78 Y157.368 E.01856
G1 X157.368 Y148.78 E.401
G1 X157.929 Y148.78 E.01852
G1 X148.78 Y157.929 E.4272
G1 X148.78 Y158.491 E.01856
G1 X158.491 Y148.78 E.45344
G1 X159.053 Y148.78 E.01856
G1 X148.78 Y159.053 E.47968
G1 X148.78 Y159.614 E.01852
G1 X159.614 Y148.78 E.50588
G1 X160.176 Y148.78 E.01856
G1 X148.78 Y160.176 E.53212
G1 X148.78 Y160.737 E.01852
G1 X160.737 Y148.78 E.55831
G1 X161.146 Y148.632 E.01436
;WIDTH:0.38292
G1 X161.351 Y148.649 E.00582
;WIDTH:0.41146
G1 X161.286 Y148.754 E.00378
;WIDTH:0.439999
G1 X161.22 Y148.859 E.00409
G1 X148.859 Y161.22 E.57718
G1 X148.754 Y161.286 E.00409
;WIDTH:0.41146
G1 X148.649 Y161.351 E.00378
;WIDTH:0.38292
G1 X148.632 Y161.146 E.00582
;WIDTH:0.439999
G1 X149.42 Y161.22 E.02613
G1 X161.22 Y149.42 E.55098
G1 X161.22 Y149.982 E.01856
G1 X149.982 Y161.22 E.52474
G1 X150.543 Y161.22 E.01852
G1 X161.22 Y150.543 E.49855
G1 X161.22 Y151.105 E.01856
G1 X151.105 Y161.22 E.4723
G1 X151.667 Y161.22 E.01856
G1 X161.22 Y151.667 E.44606
G1 X161.22 Y152.228 E.01852
G1 X152.228 Y161.22 E.41987
G1 X152.79 Y161.22 E.01856
G1 X161.22 Y152.79 E.39363
G1 X161.22 Y153.351 E.01852
G1 X153.351 Y161.22 E.36743
G1 X153.913 Y161.22 E.01856
G1 X161.22 Y153.913 E.34119
G1 X161.22 Y154.474 E.01852
G1 X154.474 Y161.22 E.31499
G1 X155.036 Y161.22 E.01856
G1 X161.22 Y155.036 E.28875
G1 X161.22 Y155.597 E.01852
G1 X155.597 Y161.22 E.26256
G1 X156.159 Y161.22 E.01856
G1 X161.22 Y156.159 E.23632
G1 X161.22 Y156.721 E.01856
G1 X156.721 Y161.22 E.21007
G1 X157.282 Y161.22 E.01852
G1 X161.22 Y157.282 E.18388
G1 X161.22 Y157.844 E.01856
G1 X157.844 Y161.22 E.15764
G1 X158.405 Y161.22 E.01852
G1 X161.22 Y158.405 E.13144
G1 X161.22 Y158.967 E.01856
G1 X158.967 Y161.22 E.1052
G1 X159.528 Y161.22 E.01852
G1 X161.22 Y159.528 E.07901
G1 X161.22 Y160.09 E.01856
G1 X160.09 Y161.22 E.05276
G1 X160.529 Y161.419 E.01591
;WIDTH:0.38292
G1 X160.488 Y161.43 E.0012
G1 X160.469 Y161.359 E.00208
G1 X160.54 Y161.378 E.00208
;WIDTH:0.41146
G1 X160.596 Y161.299 E.00297
;WIDTH:0.439999
G1 X160.651 Y161.22 E.00318
G1 X161.22 Y160.651 E.02657
G1 X161.266 Y161.205 E.01835
;WIDTH:0.44404
G1 X161.231 Y161.169 E.00167
G1 X161.182 Y161.182 E.00169
G1 X161.169 Y161.231 E.00169
G1 X161.205 Y161.266 E.00167
G1 X161.253 Y161.253 E.00166
; stop printing object calibration cube id:0 copy 0
;LAYER_CHANGE
;Z:0.6
;HEIGHT:0.2
;BEFORE_LAYER_CHANGE
G92 E0
;0.6


G1 E-4.2 F3600
;WIPE_START
G1 F7200
G1 X161.205 Y161.266 E-.02362
G1 X161.169 Y161.231 E-.02385
G1 X161.182 Y161.182 E-.02408
G1 X161.231 Y161.169 E-.02408
G1 X161.266 Y161.205 E-.02385
G1 X161.22 Y160.651 E-.26406
G1 X160.651 Y161.22 E-.38223
G1 X160.596 Y161.299 E-.04572
G1 X160.54 Y161.378 E-.046
G1 X160.469 Y161.359 E-.03491
G1 X160.488 Y161.43 E-.03491
G1 X160.529 Y161.419 E-.02016
G1 X160.09 Y161.22 E-.22895
G1 X161.018 Y160.292 E-.62358
;WIPE_END
G1 Z.6 F9000
;AFTER_LAYER_CHANGE
;0.6
; printing object calibration cube id:0 copy 0
G1 X160.951 Y161.506
G1 E6 F2400
;TYPE:Perimeter
;WIDTH:0.439999
G1 F3600
G1 X148.494 Y161.506 E.4113
G1 X148.494 Y148.494 E.42962
G1 X161.506 Y148.494 E.42962
G1 X161.506 Y161.506 E.42962
G1 X161.011 Y161.506 E.01634
G1 X161.463 Y161.903 F9000
G1 F3600
G1 X148.097 Y161.903 E.44131
G1 X148.097 Y148.097 E.45584
G1 X161.903 Y148.097 E.45584
G1 X161.903 Y161.903 E.45584
G1 X161.523 Y161.903 E.01255
G1 X162.29 Y162.29 F9000
;TYPE:External perimeter
;WIDTH:0.419999
G1 F3000
G1 X147.71 Y162.29 E.45714
G1 X147.71 Y147.71 E.45714
G1 X162.29 Y147.71 E.45714
G1 X162.29 Y162.23 E.45526
G1 X161.904 Y162.186 F9000
G1 E-4.2 F3600
;WIPE_START
G1 F7200
G1 X158.501 Y162.246 E-1.8
;WIPE_END
G1 X148.812 Y161.112 F9000
G1 E6 F2400
;TYPE:Solid infill
;WIDTH:0.53634
G1 F1200
G1 X148.769 Y161.156 E.00252
G1 X148.785 Y161.215 E.00251
G1 X148.844 Y161.231 E.00251
G1 X148.888 Y161.188 E.00252
G1 X148.872 Y161.128 E.00255
;WIDTH:0.439999
G1 X148.78 Y160.494 E.02115
G1 X149.506 Y161.22 E.0339
G1 X150.068 Y161.22 E.01856
G1 X148.78 Y159.932 E.06014
G1 X148.78 Y159.371 E.01852
G1 X150.629 Y161.22 E.08634
G1 X151.191 Y161.22 E.01856
G1 X148.78 Y158.809 E.11258
G1 X148.78 Y158.248 E.01852
G1 X151.752 Y161.22 E.13877
G1 X152.314 Y161.22 E.01856
G1 X148.78 Y157.686 E.16501
G1 X148.78 Y157.125 E.01852
G1 X152.875 Y161.22 E.19121
G1 X153.437 Y161.22 E.01856
G1 X148.78 Y156.563 E.21745
G1 X148.78 Y156.001 E.01856
G1 X153.999 Y161.22 E.24369
G1 X154.56 Y161.22 E.01852
G1 X148.78 Y155.44 E.26989
G1 X148.78 Y154.878 E.01856
G1 X155.122 Y161.22 E.29613
G1 X155.683 Y161.22 E.01852
G1 X148.78 Y154.317 E.32232
G1 X148.78 Y153.755 E.01856
G1 X156.245 Y161.22 E.34857
G1 X156.806 Y161.22 E.01852
G1 X148.78 Y153.194 E.37476
G1 X148.78 Y152.632 E.01856
G1 X157.368 Y161.22 E.401
G1 X157.929 Y161.22 E.01852
G1 X148.78 Y152.071 E.4272
G1 X148.78 Y151.509 E.01856
G1 X158.491 Y161.22 E.45344
G1 X159.053 Y161.22 E.01856
G1 X148.78 Y150.947 E.47968
G1 X148.78 Y150.386 E.01852
G1 X159.614 Y161.22 E.50588
G1 X160.176 Y161.22 E.01856
G1 X148.78 Y149.824 E.53212
G1 X148.78 Y149.263 E.01852
G1 X160.737 Y161.22 E.55831
G1 X161.351 Y161.351 E.02073
;WIDTH:0.38292
G1 X161.146 Y161.368 E.00582
;WIDTH:0.41146
G1 X161.183 Y161.255 E.00364
;WIDTH:0.439999
G1 X161.22 Y161.141 E.00396
G1 X148.859 Y148.78 E.57718
G1 X148.754 Y148.714 E.00409
;WIDTH:0.41146
G1 X148.649 Y148.649 E.00378
;WIDTH:0.38292
G1 X148.632 Y148.854 E.00582
;WIDTH:0.439999
G1 X149.42 Y148.78 E.02613
G1 X161.22 Y160.58 E.55098
G1 X161.22 Y160.018 E.01856
G1 X149.982 Y148.78 E.52474
G1 X150.543 Y148.78 E.01852
G1 X161.22 Y159.457 E.49855
G1 X161.22 Y158.895 E.01856
G1 X151.105 Y148.78 E.4723
G1 X151.667 Y148.78 E.01856
G1 X161.22 Y158.333 E.44606
G1 X161.22 Y157.772 E.01852
G1 X152.228 Y148.78 E.41987
G1 X152.79 Y148.78 E.01856
G1 X161.22 Y157.21 E.39363
G1 X161.22 Y156.649 E.01852
G1 X153.351 Y148.78 E.36743
G1 X153.913 Y148.78 E.01856
G1 X161.22 Y156.087 E.34119
G1 X161.22 Y155.526 E.01852
G1 X154.474 Y148.78 E.31499
G1 X155.036 Y148.78 E.01856
G1 X161.22 Y154.964 E.28875
G1 X161.22 Y154.403 E.01852
G1 X155.597 Y148.78 E.26256
G1 X156.159 Y148.78 E.01856
G1 X161.22 Y153.841 E.23632
G1 X161.22 Y153.279 E.01856
G1 X156.721 Y148.78 E.21007
G1 X157.282 Y148.78 E.01852
G1 X161.22 Y152.718 E.18388
G1 X161.22 Y152.156 E.01856
G1 X157.844 Y148.78 E.15764
G1 X158.405 Y148.78 E.01852
G1 X161.22 Y151.595 E.13144
G1 X161.22 Y151.033 E.01856
G1 X158.967 Y148.78 E.1052
G1 X159.528 Y148.78 E.01852
G1 X161.22 Y150.472 E.07901
G1 X161.22 Y149.91 E.01856
G1 X160.09 Y148.78 E.05276
G1 X160.488 Y148.57 E.01486
;WIDTH:0.38292
G1 X160.469 Y148.641 E.00208
G1 X160.54 Y148.622 E.00208
G1 X160.529 Y148.581 E.0012
;WIDTH:0.41146
G1 X160.59 Y148.68 E.00356
;WIDTH:0.439999
G1 X160.651 Y148.78 E.00387
G1 X161.22 Y149.349 E.02657
G1 X161.32 Y149.41 E.00387
;WIDTH:0.41146
G1 X161.419 Y149.471 E.00356
;WIDTH:0.38292
G1 X161.43 Y149.512 E.0012
G1 X161.359 Y149.531 E.00208
G1 X161.378 Y149.46 E.00208
;WIDTH:0.439999
G1 X161.253 Y148.747 E.0239
;WIDTH:0.44404
G1 X161.266 Y148.795 E.00166
G1 X161.231 Y148.831 E.00167
G1 X161.182 Y148.818 E.00169
G1 X161.169 Y148.769 E.00169
G1 X161.205 Y148.734 E.00167
; stop printing object calibration cube id:0 copy 0
;LAYER_CHANGE
;Z:0.8
;HEIGHT:0.2
;BEFORE_LAYER_CHANGE
G92 E0
;0.8


G1 E-4.2 F3600
;WIPE_START
G1 F7200
G1 X161.169 Y148.769 E-.02385
G1 X161.182 Y148.818 E-.02408
