; generated by PrusaSlicer 2.4.1+win64 on 2022-07-11 at 04:26:36 UTC

; 

; external perimeters extrusion width = 0.45mm
; perimeters extrusion width = 0.45mm
; infill extrusion width = 0.45mm
; solid infill extrusion width = 0.45mm
; top infill extrusion width = 0.40mm
; support material extrusion width = 0.35mm
; first layer extrusion width = 0.42mm

M107
M190 S40 ; set bed temperature and wait for it to be reached
M104 S210 ; set temperature
;TYPE:Custom
G28 ; home all axes
G1 Z5 F5000 ; lift nozzle
M109 S210 ; set temperature and wait for it to be reached
G21 ; set units to millimeters
G90 ; use absolute coordinates
M82 ; use absolute distances for extrusion
G92 E0
; Filament gcode
M107
;LAYER_CHANGE
;Z:0.35
;HEIGHT:0.35
G1 Z.35 F7800
G1 E-2 F2400
G92 E0
G1 X87.306 Y87.306 F7800
G1 E2 F2400
;TYPE:Skirt/Brim
;WIDTH:0.42
G1 F2700
G1 X87.599 Y87.013 E2.02079
G1 X89.442 Y85.732 E2.13341
G1 X92.086 Y85.155 E2.26923
G1 X107.914 Y85.155 E3.06359
G1 X110.123 Y85.552 E3.17622
G1 X112.401 Y87.013 E3.31204
G1 X112.987 Y87.599 E3.35361
G1 X114.268 Y89.442 E3.46623
G1 X114.845 Y92.086 E3.60206
G1 X114.845 Y107.914 E4.39642
G1 X114.448 Y110.123 E4.50904
G1 X112.987 Y112.401 E4.64486
G1 X112.401 Y112.987 E4.68644
G1 X110.558 Y114.268 E4.79906
G1 X107.914 Y114.845 E4.93488
G1 X92.086 Y114.845 E5.72925
G1 X89.877 Y114.448 E5.84187
G1 X87.599 Y112.987 E5.97769
G1 X87.013 Y112.401 E6.01926
G1 X85.732 Y110.558 E6.13189
G1 X85.155 Y107.914 E6.26771
G1 X85.155 Y92.086 E7.06207
G1 X85.552 Y89.877 E7.17469
G1 X87.013 Y87.599 E7.31051
G1 X87.264 Y87.349 E7.32829
G1 E5.32829 F2400
G92 E0
G1 X92.092 Y92.177 F7800
G1 E2 F2400
G1 F2700
G1 X92.259 Y92.009 E2.0119
G1 X92.323 Y91.983 E2.01534
G1 X107.677 Y91.983 E2.78592
G1 X107.741 Y92.009 E2.78936
G1 X107.991 Y92.259 E2.80714
G1 X108.017 Y92.323 E2.81058
G1 X108.017 Y107.677 E3.58115
G1 X107.991 Y107.741 E3.5846
G1 X107.741 Y107.991 E3.60238
G1 X107.677 Y108.017 E3.60582
G1 X92.323 Y108.017 E4.37639
G1 X92.259 Y107.991 E4.37983
G1 X92.009 Y107.741 E4.39762
G1 X91.983 Y107.677 E4.40106
G1 X91.983 Y92.323 E5.17163
G1 X92.049 Y92.219 E5.17782
G1 X92.328 Y92.429 F7800
G1 F2700
G1 X92.429 Y92.328 E5.18499
G1 X107.571 Y92.328 E5.94495
G1 X107.672 Y92.429 E5.95212
G1 X107.672 Y107.571 E6.71208
G1 X107.571 Y107.672 E6.71925
G1 X92.429 Y107.672 E7.4792
G1 X92.328 Y107.571 E7.48637
G1 X92.328 Y92.489 E8.24332
G1 X92.71 Y92.71 F7800
;TYPE:External perimeter
G1 F2700
G1 X107.29 Y92.71 E8.97503
G1 X107.29 Y107.29 E9.70674
G1 X92.71 Y107.29 E10.43845
G1 X92.71 Y92.77 E11.16715
G1 X93.096 Y92.814 F7800
G1 X93.055 Y93.055
;TYPE:Perimeter
G1 F2700
G1 X106.945 Y93.055 E11.86425
G1 X106.945 Y106.945 E12.56134
G1 X93.055 Y106.945 E13.25843
G1 X93.055 Y93.115 E13.95252
G1 X93.314 Y93.447 F7800
;TYPE:Solid infill
G1 F2700
G1 X93.447 Y93.447 E13.95922
G1 X93.447 Y93.314 E13.96592
G1 X93.792 Y93.314 F7800
G1 F2700
G1 X93.792 Y93.792 E13.98993
G1 X93.314 Y93.792 E14.01394
G1 X93.314 Y94.137 F7800
G1 F2700
G1 X94.137 Y94.137 E14.05527
G1 X94.137 Y93.314 E14.09659
G1 X94.482 Y93.314 F7800
G1 F2700
G1 X94.482 Y94.482 E14.15521
G1 X93.314 Y94.482 E14.21384
G1 X93.314 Y94.827 F7800
G1 F2700
G1 X94.827 Y94.827 E14.28978
G1 X94.827 Y93.314 E14.36572
G1 X95.861 Y93.314 F7800
G1 F2700
G1 X95.861 Y95.861 E14.49358
G1 X93.314 Y95.861 E14.62144
G1 X93.314 Y96.206 F7800
G1 F2700
G1 X96.206 Y96.206 E14.76662
G1 X96.206 Y93.314 E14.91179
G1 X96.551 Y93.314 F7800
G1 F2700
G1 X96.551 Y96.551 E15.07427
G1 X93.314 Y96.551 E15.23675
G1 X93.314 Y96.896 F7800
G1 F2700
G1 X96.896 Y96.896 E15.41654
G1 X96.896 Y93.314 E15.59633
G1 X97.703 Y93.314 F7800
G1 F2700
G1 X100 Y95.61 E15.75933
G1 X102.297 Y93.314 E15.92234
G1 X101.809 Y93.314 F7800
G1 F2700
G1 X100 Y95.123 E16.05073
G1 X98.191 Y93.314 E16.17912
G1 X98.679 Y93.314 F7800
G1 F2700
G1 X100 Y94.635 E16.2729
G1 X101.321 Y93.314 E16.36667
G1 X100.833 Y93.314 F7800
G1 F2700
G1 X100 Y94.147 E16.42583
G1 X99.167 Y93.314 E16.48498
G1 X99.654 Y93.314 F7800
G1 F2700
G1 X100 Y93.659 E16.50952
G1 X100.346 Y93.314 E16.53406
G1 E14.53406 F2400
G92 E0
G1 X105.863 Y93.314 F7800
G1 E2 F2400
G1 F2700
G1 X105.863 Y94.137 E2.04132
G1 X106.686 Y94.137 E2.08264
G1 X106.686 Y93.792 F7800
G1 F2700
G1 X106.208 Y93.792 E2.10665
G1 X106.208 Y93.314 E2.13066
G1 X106.553 Y93.314 F7800
G1 F2700
G1 X106.553 Y93.447 E2.13737
G1 X106.686 Y93.447 E2.14407
G1 X106.686 Y94.482 F7800
G1 F2700
G1 X105.518 Y94.482 E2.2027
G1 X105.518 Y93.314 E2.26133
G1 X105.173 Y93.314 F7800
G1 F2700
G1 X105.173 Y94.827 E2.33727
G1 X106.686 Y94.827 E2.4132
G1 X106.686 Y95.172 F7800
G1 F2700
G1 X104.828 Y95.172 E2.50645
G1 X104.828 Y93.314 E2.5997
G1 X104.484 Y93.314 F7800
G1 F2700
G1 X104.484 Y95.516 E2.71025
G1 X106.686 Y95.516 E2.8208
G1 X106.686 Y95.861 F7800
G1 F2700
G1 X104.139 Y95.861 E2.94867
G1 X104.139 Y93.314 E3.07653
G1 X103.794 Y93.314 F7800
G1 F2700
G1 X103.794 Y96.206 E3.2217
G1 X106.686 Y96.206 E3.36687
G1 X106.686 Y96.551 F7800
G1 F2700
G1 X103.449 Y96.551 E3.52935
G1 X103.449 Y93.314 E3.69183
G1 X103.104 Y93.314 F7800
G1 F2700
G1 X103.104 Y96.896 E3.87162
G1 X106.686 Y96.896 E4.05141
G1 X106.686 Y97.703 F7800
G1 F2700
G1 X104.39 Y100 E4.21442
G1 X106.686 Y102.297 E4.37743
G1 X106.686 Y101.809 F7800
G1 F2700
G1 X104.877 Y100 E4.50582
G1 X106.686 Y98.191 E4.63421
G1 X106.686 Y98.679 F7800
G1 F2700
G1 X105.365 Y100 E4.72798
G1 X106.686 Y101.321 E4.82176
G1 X106.686 Y100.833 F7800
G1 F2700
G1 X105.853 Y100 E4.88091
G1 X106.686 Y99.167 E4.94007
G1 X106.686 Y99.654 F7800
G1 F2700
G1 X106.341 Y100 E4.96461
G1 X106.686 Y100.346 E4.98915
G1 E2.98915 F2400
G92 E0
G1 X106.686 Y103.104 F7800
G1 E2 F2400
G1 F2700
G1 X103.104 Y103.104 E2.17979
G1 X103.104 Y106.686 E2.35958
G1 X103.449 Y106.686 F7800
G1 F2700
G1 X103.449 Y103.449 E2.52206
G1 X106.686 Y103.449 E2.68454
G1 X106.686 Y104.484 F7800
G1 F2700
G1 X104.484 Y104.484 E2.79509
G1 X104.484 Y106.686 E2.90565
G1 X104.139 Y106.686 F7800
G1 F2700
G1 X104.139 Y104.139 E3.03351
G1 X106.686 Y104.139 E3.16137
G1 X106.686 Y103.794 F7800
G1 F2700
G1 X103.794 Y103.794 E3.30655
G1 X103.794 Y106.686 E3.45172
G1 X104.828 Y106.686 F7800
G1 F2700
G1 X104.828 Y104.828 E3.54496
G1 X106.686 Y104.828 E3.63821
G1 X106.686 Y105.173 F7800
G1 F2700
G1 X105.173 Y105.173 E3.71415
G1 X105.173 Y106.686 E3.79008
G1 X105.518 Y106.686 F7800
G1 F2700
G1 X105.518 Y105.518 E3.84871
G1 X106.686 Y105.518 E3.90734
G1 X106.686 Y106.553 F7800
G1 F2700
G1 X106.553 Y106.553 E3.91404
G1 X106.553 Y106.686 E3.92075
G1 X106.208 Y106.686 F7800
G1 F2700
G1 X106.208 Y106.208 E3.94476
G1 X106.686 Y106.208 E3.96877
G1 X106.686 Y105.863 F7800
G1 F2700
G1 X105.863 Y105.863 E4.01009
G1 X105.863 Y106.686 E4.05141
G1 E2.05141 F2400
G92 E0
G1 X102.297 Y106.686 F7800
G1 E2 F2400
G1 F2700
G1 X100 Y104.39 E2.16301
G1 X97.703 Y106.686 E2.32602
G1 X98.191 Y106.686 F7800
G1 F2700
G1 X100 Y104.877 E2.45441
G1 X101.809 Y106.686 E2.5828
G1 X101.321 Y106.686 F7800
G1 F2700
G1 X100 Y105.365 E2.67657
G1 X98.679 Y106.686 E2.77034
G1 X99.167 Y106.686 F7800
G1 F2700
G1 X100 Y105.853 E2.8295
G1 X100.833 Y106.686 E2.88866
G1 X100.346 Y106.686 F7800
G1 F2700
G1 X100 Y106.341 E2.91319
G1 X99.654 Y106.686 E2.93773
G1 E.93773 F2400
G92 E0
G1 X96.551 Y106.686 F7800
G1 E2 F2400
G1 F2700
G1 X96.551 Y103.449 E2.16248
G1 X93.314 Y103.449 E2.32496
G1 X93.314 Y103.104 F7800
G1 F2700
G1 X96.896 Y103.104 E2.50475
G1 X96.896 Y106.686 E2.68454
G1 X97.216 Y106.686 F7800
G1 F2700
G1 X100 Y103.902 E2.88216
G1 X102.759 Y106.661 E3.07799
G1 X102.759 Y102.759 E3.27381
G1 X106.661 Y102.759 E3.46964
G1 X103.902 Y100 E3.66546
G1 X106.661 Y97.241 E3.86128
G1 X102.759 Y97.241 E4.05711
G1 X102.759 Y93.339 E4.25293
G1 X100 Y96.098 E4.44876
G1 X97.241 Y93.339 E4.64458
G1 X97.241 Y97.241 E4.8404
G1 X93.339 Y97.241 E5.03623
G1 X96.098 Y100 E5.23205
G1 X93.339 Y102.759 E5.42788
G1 X97.241 Y102.759 E5.6237
G1 X97.241 Y106.173 E5.79505
G1 X100 Y103.414 E5.99087
G1 X102.414 Y105.828 E6.16222
G1 X102.414 Y102.414 E6.33356
G1 X105.828 Y102.414 E6.50491
G1 X103.414 Y100 E6.67626
G1 X105.828 Y97.586 E6.8476
G1 X102.414 Y97.586 E7.01895
G1 X102.414 Y94.172 E7.19029
G1 X100 Y96.586 E7.36164
G1 X97.586 Y94.172 E7.53299
G1 X97.586 Y97.586 E7.70433
G1 X94.172 Y97.586 E7.87568
G1 X96.586 Y100 E8.04702
G1 X94.172 Y102.414 E8.21837
G1 X97.586 Y102.414 E8.38972
G1 X97.586 Y105.341 E8.53658
G1 X100 Y102.926 E8.70793
G1 X102.069 Y104.996 E8.8548
G1 X102.069 Y102.069 E9.00167
G1 X104.996 Y102.069 E9.14853
G1 X102.926 Y100 E9.2954
G1 X104.996 Y97.931 E9.44227
G1 X102.069 Y97.931 E9.58914
G1 X102.069 Y95.004 E9.73601
G1 X100 Y97.074 E9.88288
G1 X97.931 Y95.004 E10.02974
G1 X97.931 Y97.931 E10.17661
G1 X95.004 Y97.931 E10.32348
G1 X97.074 Y100 E10.47035
G1 X95.004 Y102.069 E10.61722
G1 X97.931 Y102.069 E10.76408
G1 X97.931 Y104.508 E10.88647
G1 X100 Y102.439 E11.03334
G1 X101.724 Y104.163 E11.15573
G1 X101.724 Y101.724 E11.27812
G1 X104.163 Y101.724 E11.40051
G1 X102.439 Y100 E11.5229
G1 X104.163 Y98.276 E11.64529
G1 X101.724 Y98.276 E11.76768
G1 X101.724 Y95.837 E11.89007
G1 X100 Y97.561 E12.01246
G1 X98.276 Y95.837 E12.13485
G1 X98.276 Y98.276 E12.25724
G1 X95.837 Y98.276 E12.37963
G1 X97.561 Y100 E12.50202
G1 X95.837 Y101.724 E12.62441
G1 X98.276 Y101.724 E12.7468
G1 X98.276 Y103.675 E12.84471
G1 X100 Y101.951 E12.9671
G1 X101.38 Y103.331 E13.06502
G1 X101.38 Y101.38 E13.16293
G1 X103.331 Y101.38 E13.26084
G1 X101.951 Y100 E13.35875
G1 X103.331 Y98.62 E13.45667
G1 X101.38 Y98.62 E13.55458
G1 X101.38 Y96.669 E13.65249
G1 X100 Y98.049 E13.7504
G1 X98.62 Y96.669 E13.84831
G1 X98.62 Y98.62 E13.94623
G1 X96.669 Y98.62 E14.04414
G1 X98.049 Y100 E14.14205
G1 X96.669 Y101.38 E14.23996
G1 X98.62 Y101.38 E14.33787
G1 X98.62 Y102.843 E14.41131
G1 X100 Y101.463 E14.50922
G1 X101.035 Y102.498 E14.58265
G1 X101.035 Y101.035 E14.65609
G1 X102.498 Y101.035 E14.72952
G1 X101.463 Y100 E14.80296
G1 X102.498 Y98.965 E14.87639
G1 X101.035 Y98.965 E14.94982
G1 X101.035 Y97.502 E15.02326
G1 X100 Y98.537 E15.09669
G1 X98.965 Y97.502 E15.17013
G1 X98.965 Y98.965 E15.24356
G1 X97.502 Y98.965 E15.31699
G1 X98.537 Y100 E15.39043
G1 X97.502 Y101.035 E15.46386
G1 X98.965 Y101.035 E15.5373
G1 X98.965 Y102.01 E15.58625
G1 X100 Y100.975 E15.65969
G1 X100.69 Y101.665 E15.70864
G1 X100.69 Y100.69 E15.7576
G1 X101.665 Y100.69 E15.80655
G1 X100.975 Y100 E15.85551
G1 X101.665 Y99.31 E15.90447
G1 X100.69 Y99.31 E15.95342
G1 X100.69 Y98.335 E16.00238
G1 X100 Y99.025 E16.05133
G1 X99.31 Y98.335 E16.10029
G1 X99.31 Y99.31 E16.14925
G1 X98.335 Y99.31 E16.1982
G1 X99.025 Y100 E16.24716
G1 X98.335 Y100.69 E16.29611
G1 X99.31 Y100.69 E16.34507
G1 X99.31 Y101.178 E16.36955
G1 X100 Y100.488 E16.4185
G1 X100.345 Y100.833 E16.44298
G1 X100.345 Y100.345 E16.46746
G1 X100.833 Y100.345 E16.49194
G1 X100.488 Y100 E16.51642
G1 X100.833 Y99.655 E16.54089
G1 X100.345 Y99.655 E16.56537
G1 X100.345 Y99.167 E16.58985
G1 X100 Y99.512 E16.61433
G1 X99.655 Y99.167 E16.63881
G1 X99.655 Y99.655 E16.66328
G1 X99.167 Y99.655 E16.68776
G1 X99.512 Y100 E16.71224
G1 X99.167 Y100.345 E16.73672
G1 X99.655 Y100.345 E16.7612
G1 X100 Y100 E16.78567
G1 E14.78567 F2400
G92 E0
G1 X93.314 Y95.172 F7800
G1 E2 F2400
G1 F2700
G1 X95.172 Y95.172 E2.09325
G1 X95.172 Y93.314 E2.18649
G1 X95.516 Y93.314 F7800
G1 F2700
G1 X95.516 Y95.516 E2.29705
G1 X93.314 Y95.516 E2.4076
G1 E.4076 F2400
G92 E0
G1 X93.314 Y97.703 F7800
G1 E2 F2400
G1 F2700
G1 X95.61 Y100 E2.16301
G1 X93.314 Y102.297 E2.32602
G1 X93.314 Y101.809 F7800
G1 F2700
G1 X95.123 Y100 E2.45441
G1 X93.314 Y98.191 E2.5828
G1 X93.314 Y99.654 F7800
G1 F2700
G1 X93.659 Y100 E2.60734
G1 X93.314 Y100.346 E2.63187
G1 X93.314 Y100.833 F7800
G1 F2700
G1 X94.147 Y100 E2.69103
G1 X93.314 Y99.167 E2.75019
G1 X93.314 Y98.679 F7800
G1 F2700
G1 X94.635 Y100 E2.84396
G1 X93.314 Y101.321 E2.93773
G1 E.93773 F2400
G92 E0
G1 X93.314 Y103.794 F7800
G1 E2 F2400
G1 F2700
G1 X96.206 Y103.794 E2.14517
G1 X96.206 Y106.686 E2.29034
G1 X95.861 Y106.686 F7800
G1 F2700
G1 X95.861 Y104.139 E2.41821
G1 X93.314 Y104.139 E2.54607
G1 X93.314 Y104.484 F7800
G1 F2700
G1 X95.516 Y104.484 E2.65662
G1 X95.516 Y106.686 E2.76718
G1 X95.172 Y106.686 F7800
G1 F2700
G1 X95.172 Y104.828 E2.86042
G1 X93.314 Y104.828 E2.95367
G1 X93.314 Y105.173 F7800
G1 F2700
G1 X94.827 Y105.173 E3.02961
G1 X94.827 Y106.686 E3.10555
G1 X94.482 Y106.686 F7800
G1 F2700
G1 X94.482 Y105.518 E3.16417
G1 X93.314 Y105.518 E3.2228
G1 X93.314 Y105.863 F7800
G1 F2700
G1 X94.137 Y105.863 E3.26412
G1 X94.137 Y106.686 E3.30544
G1 X93.792 Y106.686 F7800
G1 F2700
G1 X93.792 Y106.208 E3.32946
G1 X93.314 Y106.208 E3.35347
G1 X93.314 Y106.553 F7800
G1 F2700
G1 X93.447 Y106.553 E3.36017
G1 X93.447 Y106.686 E3.36687
;LAYER_CHANGE
;Z:0.45
;HEIGHT:0.1
G1 Z.45 F7800
G1 E1.36687 F2400
G92 E0
G1 X93.154 Y93.154 F7800
G1 E2 F2400
;TYPE:Perimeter
;WIDTH:0.45
G1 F4200
G1 X106.846 Y93.154 E2.24396
G1 X106.846 Y106.846 E2.48792
G1 X93.154 Y106.846 E2.73188
G1 X93.154 Y93.214 E2.97478
G1 X92.725 Y92.725 F7800
;TYPE:External perimeter
G1 F4200
G1 X107.275 Y92.725 E3.23401
G1 X107.275 Y107.275 E3.49324
G1 X92.725 Y107.275 E3.75247
G1 X92.725 Y92.785 E4.01064
G1 X93.111 Y92.829 F7800
G1 X93.282 Y94.158
;TYPE:Solid infill
;WIDTH:0.454681
G1 F2700
G1 X93.965 Y93.475 E4.02804
G1 X94.578 Y93.475 E4.03907
G1 X93.475 Y94.578 E4.06717
G1 X93.475 Y95.191 E4.07821
G1 X95.191 Y93.475 E4.12191
G1 X95.803 Y93.475 E4.13294
G1 X93.475 Y95.803 E4.19225
G1 X93.475 Y96.416 E4.20329
G1 X96.416 Y93.475 E4.2782
G1 X97.029 Y93.475 E4.28924
G1 X93.475 Y97.029 E4.37976
G1 X93.475 Y97.641 E4.39079
G1 X97.641 Y93.475 E4.49692
G1 X98.254 Y93.475 E4.50795
G1 X93.475 Y98.254 E4.62968
G1 X93.475 Y98.867 E4.64072
G1 X98.867 Y93.475 E4.77805
G1 X99.479 Y93.475 E4.78909
G1 X93.475 Y99.479 E4.94203
G1 X93.475 Y100.092 E4.95307
G1 X100.092 Y93.475 E5.12161
G1 X100.705 Y93.475 E5.13265
G1 X93.475 Y100.705 E5.3168
G1 X93.475 Y101.317 E5.32784
G1 X101.317 Y93.475 E5.5276
G1 X101.93 Y93.475 E5.53863
G1 X93.475 Y101.93 E5.754
G1 X93.475 Y102.543 E5.76503
G1 X102.543 Y93.475 E5.996
G1 X103.155 Y93.475 E6.00704
G1 X93.475 Y103.155 E6.25362
G1 X93.475 Y103.768 E6.26465
G1 X103.768 Y93.475 E6.52683
G1 X104.381 Y93.475 E6.53787
G1 X93.475 Y104.381 E6.81566
G1 X93.475 Y104.993 E6.82669
G1 X104.993 Y93.475 E7.12008
G1 X105.606 Y93.475 E7.13112
G1 X93.475 Y105.606 E7.44012
G1 X93.475 Y106.219 E7.45115
G1 X106.219 Y93.475 E7.77576
G1 X106.525 Y93.475 E7.78128
G1 X106.525 Y93.781 E7.78679
G1 X93.781 Y106.525 E8.1114
G1 X94.394 Y106.525 E8.12244
G1 X106.525 Y94.394 E8.43144
G1 X106.525 Y95.007 E8.44248
G1 X95.007 Y106.525 E8.73587
G1 X95.619 Y106.525 E8.74691
G1 X106.525 Y95.619 E9.0247
G1 X106.525 Y96.232 E9.03573
G1 X96.232 Y106.525 E9.29792
G1 X96.845 Y106.525 E9.30895
G1 X106.525 Y96.845 E9.55553
G1 X106.525 Y97.457 E9.56657
G1 X97.457 Y106.525 E9.79754
G1 X98.07 Y106.525 E9.80858
G1 X106.525 Y98.07 E10.02395
G1 X106.525 Y98.683 E10.03498
G1 X98.683 Y106.525 E10.23475
G1 X99.295 Y106.525 E10.24578
G1 X106.525 Y99.295 E10.42994
G1 X106.525 Y99.908 E10.44097
G1 X99.908 Y106.525 E10.60952
G1 X100.521 Y106.525 E10.62056
G1 X106.525 Y100.521 E10.77351
G1 X106.525 Y101.133 E10.78454
G1 X101.133 Y106.525 E10.92188
G1 X101.746 Y106.525 E10.93292
G1 X106.525 Y101.746 E11.05465
G1 X106.525 Y102.359 E11.06568
G1 X102.359 Y106.525 E11.17181
G1 X102.971 Y106.525 E11.18285
G1 X106.525 Y102.971 E11.27337
G1 X106.525 Y103.584 E11.28441
G1 X103.584 Y106.525 E11.35932
G1 X104.197 Y106.525 E11.37036
G1 X106.525 Y104.197 E11.42967
G1 X106.525 Y104.809 E11.44071
G1 X104.809 Y106.525 E11.48441
G1 X105.422 Y106.525 E11.49545
G1 X106.525 Y105.422 E11.52355
G1 X106.525 Y106.035 E11.53458
G1 X105.842 Y106.718 E11.55199
;LAYER_CHANGE
;Z:0.55
;HEIGHT:0.1
G1 Z.55 F7800
G1 E9.55199 F2400
G92 E0
G1 X93.154 Y93.154 F7800
G1 E2 F2400
;TYPE:Perimeter
;WIDTH:0.45
G1 F4200
G1 X106.846 Y93.154 E2.24396
G1 X106.846 Y106.846 E2.48792
G1 X93.154 Y106.846 E2.73188
G1 X93.154 Y93.214 E2.97478
G1 X92.725 Y92.725 F7800
;TYPE:External perimeter
G1 F4200
G1 X107.275 Y92.725 E3.23401
G1 X107.275 Y107.275 E3.49324
G1 X92.725 Y107.275 E3.75247
G1 X92.725 Y92.785 E4.01064
