; generated by PrusaSlicer 2.4.1+win64 on 2022-07-11 at 05:12:36 UTC

; 

; external perimeters extrusion width = 0.45mm
; perimeters extrusion width = 0.45mm
; infill extrusion width = 0.45mm
; solid infill extrusion width = 0.45mm
; top infill extrusion width = 0.40mm
; support material extrusion width = 0.35mm
; first layer extrusion width = 0.42mm

M107
M190 S40 ; set bed temperature and wait for it to be reached
M104 S210 ; set temperature
;TYPE:Custom
G28 ; home all axes
G1 Z5 F5000 ; lift nozzle
M109 S210 ; set temperature and wait for it to be reached
G21 ; set units to millimeters
G90 ; use absolute coordinates
M82 ; use absolute distances for extrusion
G92 E0
; Filament gcode
M107
;LAYER_CHANGE
;Z:0.35
;HEIGHT:0.35
G1 Z.35 F7800
G1 E-2 F2400
G92 E0
G1 X84.002 Y86.73 F7800
G1 E2 F2400
;TYPE:Skirt/Brim
;WIDTH:0.42
G1 F2700
G1 X85.845 Y85.449 E2.11262
G1 X88.489 Y84.871 E2.24844
G1 X111.511 Y84.871 E3.40385
G1 X113.72 Y85.268 E3.51647
G1 X115.998 Y86.73 E3.65229
G1 X118.927 Y89.659 E3.86022
G1 X120.209 Y91.502 E3.97284
G1 X120.786 Y94.146 E4.10866
G1 X120.786 Y114.34 E5.12212
G1 X120.389 Y116.549 E5.23474
G1 X118.927 Y118.826 E5.37056
G1 X116.984 Y120.209 E5.49025
G1 X114.34 Y120.786 E5.62607
G1 X85.66 Y120.786 E7.06538
G1 X83.451 Y120.389 E7.178
G1 X81.174 Y118.927 E7.31382
G1 X79.791 Y116.984 E7.43351
G1 X79.214 Y114.34 E7.56933
G1 X79.214 Y94.146 E8.58279
G1 X79.611 Y91.937 E8.69541
G1 X81.073 Y89.659 E8.83123
G1 X83.96 Y86.772 E9.03615
G1 E7.03615 F2400
G92 E0
G1 X95.931 Y100.345 F7800
G1 E2 F2400
G1 F2700
G1 X96.465 Y99.921 E2.03424
G1 X96.906 Y99.671 E2.05967
G1 X97.348 Y99.467 E2.08411
G1 X98.061 Y99.22 E2.12197
G1 X98.534 Y99.117 E2.14628
G1 X99.25 Y99.025 E2.1825
G1 X100.278 Y99 E2.23409
G1 X100.752 Y99.025 E2.25794
G1 X101.466 Y99.117 E2.29403
G1 X101.876 Y99.202 E2.31509
G1 X102.287 Y99.328 E2.33664
G1 X102.685 Y99.481 E2.35805
G1 X103.07 Y99.658 E2.37929
G1 X103.444 Y99.861 E2.40069
G1 X103.943 Y100.233 E2.43189
G1 X104.242 Y100.5 E2.452
G1 X104.675 Y101.023 E2.4861
G1 X104.99 Y101.588 E2.51856
G1 X105.166 Y102.2 E2.5505
G1 X105.184 Y102.779 E2.57956
G1 X105.051 Y103.302 E2.60664
G1 X104.795 Y103.69 E2.63002
G1 X104.55 Y103.945 E2.64775
G1 X104.188 Y104.157 E2.66881
G1 X103.859 Y104.288 E2.68659
G1 X103.523 Y104.377 E2.704
G1 X103.101 Y104.423 E2.7253
G1 X102.322 Y104.416 E2.76442
G1 X100.707 Y104.264 E2.84584
G1 X100 Y104.234 E2.88133
G1 X99.294 Y104.264 E2.91682
G1 X97.679 Y104.416 E2.99822
G1 X96.96 Y104.424 E3.03428
G1 X96.467 Y104.374 E3.05918
G1 X96.012 Y104.24 E3.08296
G1 X95.494 Y103.978 E3.11209
G1 X95.208 Y103.694 E3.13231
G1 X94.955 Y103.317 E3.15511
G1 X94.817 Y102.784 E3.18274
G1 X94.834 Y102.2 E3.21206
G1 X94.966 Y101.714 E3.23736
G1 X95.066 Y101.478 E3.25022
G1 X95.307 Y101.049 E3.27489
G1 X95.777 Y100.48 E3.31195
G1 X95.886 Y100.384 E3.31919
G1 X96.111 Y100.643 F7800
G1 F2700
G1 X96.665 Y100.202 E3.35471
G1 X97.069 Y99.975 E3.37796
G1 X97.47 Y99.79 E3.4001
G1 X98.164 Y99.549 E3.437
G1 X98.585 Y99.458 E3.45864
G1 X99.285 Y99.368 E3.49404
G1 X100.267 Y99.345 E3.54331
G1 X100.715 Y99.368 E3.56584
G1 X101.415 Y99.458 E3.60126
G1 X101.798 Y99.538 E3.6209
G1 X102.169 Y99.652 E3.64038
G1 X102.546 Y99.797 E3.66064
G1 X102.92 Y99.969 E3.6813
G1 X103.268 Y100.158 E3.70121
G1 X103.73 Y100.505 E3.73018
G1 X103.985 Y100.73 E3.74726
G1 X104.399 Y101.23 E3.77983
G1 X104.678 Y101.736 E3.80884
G1 X104.828 Y102.273 E3.83679
G1 X104.844 Y102.718 E3.85914
G1 X104.725 Y103.186 E3.88338
G1 X104.534 Y103.466 E3.90039
G1 X104.352 Y103.662 E3.91383
G1 X104.047 Y103.842 E3.93159
G1 X103.76 Y103.957 E3.94711
G1 X103.448 Y104.04 E3.96331
G1 X103.094 Y104.078 E3.98115
G1 X102.347 Y104.072 E4.01867
G1 X100.73 Y103.92 E4.10016
G1 X100 Y103.889 E4.13683
G1 X99.27 Y103.92 E4.17349
G1 X97.653 Y104.072 E4.25499
G1 X96.983 Y104.08 E4.28863
G1 X96.548 Y104.039 E4.31056
G1 X96.123 Y103.913 E4.33279
G1 X95.715 Y103.712 E4.35564
G1 X95.48 Y103.481 E4.37216
G1 X95.279 Y103.195 E4.38973
G1 X95.162 Y102.768 E4.41194
G1 X95.178 Y102.232 E4.43882
G1 X95.295 Y101.819 E4.46039
G1 X95.372 Y101.637 E4.47031
G1 X95.583 Y101.256 E4.49216
G1 X96.066 Y100.683 E4.52978
G1 E2.52978 F2400
G92 E0
G1 X96.969 Y98.878 F7800
G1 E2 F2400
;TYPE:Support material
G1 F2700
G1 X96.577 Y99.061 E2.02169
G1 X96.151 Y99.298 E2.04615
G1 X95.502 Y99.797 E2.08723
G1 X94.776 Y99.797 E2.12366
G1 X94.9 Y99.68 E2.13221
G1 X95.322 Y99.355 E2.15891
G1 X95.73 Y99.083 E2.18354
G1 X96.508 Y98.682 E2.22746
G1 X96.969 Y98.494 E2.25244
G1 X96.969 Y98.826 E2.26911
G1 E.26911 F2400
G92 E0
G1 X94.14 Y102.176 F7800
G1 E2 F2400
G1 F2700
G1 X94.12 Y102.626 E2.02258
G1 X93.912 Y102.626 E2.03305
G1 X94.107 Y104.736 E2.13942
G1 X94.14 Y104.891 E2.14738
G1 X94.14 Y105.86 E2.19599
G1 X95.474 Y105.86 E2.26292
G1 X95.513 Y106.232 E2.28169
G1 X95.236 Y106.261 E2.2957
G1 X94.713 Y106.268 E2.32195
G1 X94.744 Y106.702 E2.34379
G1 X94.364 Y106.704 E2.36286
G1 X93.94 Y106.672 E2.38417
G1 X93.938 Y107.11 E2.40611
G1 X93.503 Y107.074 E2.42802
G1 X93.087 Y106.997 E2.44926
G1 X92.693 Y106.855 E2.47024
G1 X92.295 Y106.618 E2.49349
G1 X91.926 Y106.205 E2.52127
G1 X91.77 Y105.907 E2.53818
G1 X91.64 Y105.534 E2.55803
G1 X91.552 Y105.121 E2.5792
G1 X91.513 Y104.693 E2.60075
G1 X91.521 Y104.13 E2.629
G1 X91.95 Y104.161 E2.6506
G1 X91.971 Y103.724 E2.67255
G1 X92.028 Y103.276 E2.69519
G1 X92.103 Y102.917 E2.71363
G1 X92.521 Y103.037 E2.73543
G1 X92.585 Y102.724 E2.75146
G1 X92.721 Y102.255 E2.77595
G1 X92.897 Y101.788 E2.80101
G1 X93.105 Y101.345 E2.82556
G1 X93.455 Y101.553 E2.84598
G1 X93.634 Y101.21 E2.86541
G1 X93.946 Y100.72 E2.89456
G1 X94.14 Y100.478 E2.91012
G1 X94.14 Y102.124 E2.99274
G1 E.99274 F2400
G92 E0
G1 X94.252 Y106.54 F7800
G1 E2 F2400
G1 F2700
G1 X94.252 Y106.17 E2.01854
G1 X93.869 Y106.17 E2.03777
G1 X93.869 Y106.356 E2.04708
G1 X93.632 Y106.338 E2.05899
G1 X93.629 Y106.774 E2.08085
G1 X93.485 Y106.756 E2.08813
G1 X93.485 Y101.932 E2.33023
G1 X93.24 Y101.787 E2.34452
G1 X93.102 Y102.125 E2.36286
G1 X93.102 Y106.673 E2.5911
G1 X92.833 Y106.577 E2.60544
G1 X92.719 Y106.511 E2.61205
G1 X92.719 Y103.417 E2.76733
G1 X92.339 Y103.307 E2.7872
G1 X92.336 Y106.2 E2.93236
G1 X92.189 Y106.038 E2.94335
G1 X92.058 Y105.79 E2.95741
G1 X91.953 Y105.488 E2.97345
G1 X91.953 Y104.316 E3.03226
G1 E1.03226 F2400
G92 E0
G1 X90.308 Y108.633 F7800
G1 E2 F2400
;TYPE:Support material interface
;WIDTH:0.35
G1 F2700
G1 X90.308 Y100 E2.34534
G1 X89.98 Y100 E2.35848
G1 X89.98 Y108.486 E2.69791
G1 X89.651 Y108.486 E2.71105
G1 X89.651 Y100 E3.05048
G1 X89.322 Y100 E3.06362
G1 X89.322 Y108.486 E3.40305
G1 X88.994 Y108.486 E3.41619
G1 X88.994 Y99.852 E3.76153
G1 E1.76153 F2400
G92 E0
G1 X96.969 Y93.969 F7800
G1 E2 F2400
;TYPE:Support material
;WIDTH:0.42
G1 F2700
G1 X93.969 Y93.969 E2.15056
G1 X93.969 Y96.797 E2.29251
G1 X91.14 Y96.797 E2.43446
G1 X91.14 Y99.626 E2.57641
G1 X88.311 Y99.626 E2.71837
G1 X88.311 Y108.86 E3.1818
G1 X111.689 Y108.86 E4.355
G1 X111.689 Y99.626 E4.81844
G1 X108.86 Y99.626 E4.96039
G1 X108.86 Y96.797 E5.10234
G1 X106.031 Y96.797 E5.2443
G1 X106.031 Y93.969 E5.38625
G1 X103.031 Y93.969 E5.53681
G1 X103.031 Y91.389 E5.66628
G1 X111.44 Y91.389 E6.08826
G1 X111.44 Y94.217 E6.23021
G1 X114.268 Y94.217 E6.37216
G1 X114.268 Y102.626 E6.79414
G1 X112.024 Y102.626 E6.90677
G1 X111.958 Y103.788 E6.96519
G1 X112.366 Y103.87 E6.98609
G1 X111.867 Y105.86 E7.08905
G1 X114.268 Y105.86 E7.20956
G1 X114.268 Y114.268 E7.63154
G1 X85.732 Y114.268 E9.06368
G1 X85.732 Y105.86 E9.48566
G1 X88.132 Y105.86 E9.60614
G1 X87.633 Y103.87 E9.70914
G1 X88.041 Y103.787 E9.73006
G1 X87.975 Y102.626 E9.78845
G1 X85.732 Y102.626 E9.90101
G1 X85.732 Y94.217 E10.32299
G1 X88.56 Y94.217 E10.46495
G1 X88.56 Y91.389 E10.6069
G1 X96.969 Y91.389 E11.02888
G1 X96.969 Y93.917 E11.15575
G1 E9.15575 F2400
G92 E0
G1 X102.013 Y100.419 F7800
G1 X104.061 Y102.379
G1 X104.065 Y102.441
G1 X113.796 Y114.113
G1 E2 F2400
G1 F2700
G1 X113.796 Y106.17 E2.39861
G1 X113.412 Y106.17 E2.41785
G1 X113.412 Y113.958 E2.80867
G1 X113.029 Y113.958 E2.8279
G1 X113.029 Y106.17 E3.21873
G1 X112.646 Y106.17 E3.23796
G1 X112.646 Y113.958 E3.62878
G1 X112.263 Y113.958 E3.64801
G1 X112.263 Y106.17 E4.03884
G1 X111.999 Y106.17 E4.05208
G1 X111.999 Y109.17 E4.20263
G1 X111.88 Y109.17 E4.20863
G1 X111.88 Y113.958 E4.44889
G1 X111.496 Y113.958 E4.46813
G1 X111.496 Y109.17 E4.70839
G1 X111.113 Y109.17 E4.72762
G1 X111.113 Y113.958 E4.96789
G1 X110.73 Y113.958 E4.98712
G1 X110.73 Y109.17 E5.22739
G1 X110.347 Y109.17 E5.24662
G1 X110.347 Y113.958 E5.48689
G1 X109.963 Y113.958 E5.50612
G1 X109.963 Y109.17 E5.74639
G1 X109.58 Y109.17 E5.76562
G1 X109.58 Y113.958 E6.00589
G1 X109.197 Y113.958 E6.02512
G1 X109.197 Y109.17 E6.26538
G1 X108.814 Y109.17 E6.28462
G1 X108.814 Y113.958 E6.52488
G1 X108.431 Y113.958 E6.54412
G1 X108.431 Y109.17 E6.78438
G1 X108.047 Y109.17 E6.80361
G1 X108.047 Y113.958 E7.04388
G1 X107.664 Y113.958 E7.06311
G1 X107.664 Y109.17 E7.30338
G1 X107.281 Y109.17 E7.32261
G1 X107.281 Y113.958 E7.56288
G1 X106.898 Y113.958 E7.58211
G1 X106.898 Y109.17 E7.82238
G1 X106.515 Y109.17 E7.84161
G1 X106.515 Y113.958 E8.08188
G1 X106.131 Y113.958 E8.10111
G1 X106.131 Y109.17 E8.34138
G1 X105.748 Y109.17 E8.36061
G1 X105.748 Y113.958 E8.60088
G1 X105.365 Y113.958 E8.62011
G1 X105.365 Y109.17 E8.86037
G1 X104.982 Y109.17 E8.87961
G1 X104.982 Y113.958 E9.11987
G1 X104.599 Y113.958 E9.1391
G1 X104.599 Y109.17 E9.37937
G1 X104.215 Y109.17 E9.3986
G1 X104.215 Y113.958 E9.63887
G1 X103.832 Y113.958 E9.6581
G1 X103.832 Y109.17 E9.89837
G1 X103.449 Y109.17 E9.9176
G1 X103.449 Y113.958 E10.15787
G1 X103.066 Y113.958 E10.1771
G1 X103.066 Y109.17 E10.41737
G1 X102.682 Y109.17 E10.4366
G1 X102.682 Y113.958 E10.67687
G1 X102.299 Y113.958 E10.6961
G1 X102.299 Y109.17 E10.93637
G1 X101.916 Y109.17 E10.9556
G1 X101.916 Y113.958 E11.19587
G1 X101.533 Y113.958 E11.2151
G1 X101.533 Y109.17 E11.45537
G1 X101.15 Y109.17 E11.4746
G1 X101.15 Y113.958 E11.71486
G1 X100.766 Y113.958 E11.7341
G1 X100.766 Y109.17 E11.97436
G1 X100.383 Y109.17 E11.9936
G1 X100.383 Y113.958 E12.23386
G1 X100 Y113.958 E12.25309
G1 X100 Y109.17 E12.49336
G1 X99.617 Y109.17 E12.51259
G1 X99.617 Y113.958 E12.75286
G1 X99.234 Y113.958 E12.77209
G1 X99.234 Y109.17 E13.01236
G1 X98.85 Y109.17 E13.03159
G1 X98.85 Y113.958 E13.27186
G1 X98.467 Y113.958 E13.29109
G1 X98.467 Y109.17 E13.53136
G1 X98.084 Y109.17 E13.55059
G1 X98.084 Y113.958 E13.79086
G1 X97.701 Y113.958 E13.81009
G1 X97.701 Y109.17 E14.05035
G1 X97.318 Y109.17 E14.06959
G1 X97.318 Y113.958 E14.30985
G1 X96.934 Y113.958 E14.32908
G1 X96.934 Y109.17 E14.56935
G1 X96.551 Y109.17 E14.58858
G1 X96.551 Y113.958 E14.82885
G1 X96.168 Y113.958 E14.84808
G1 X96.168 Y109.17 E15.08835
G1 X95.785 Y109.17 E15.10758
G1 X95.785 Y113.958 E15.34785
G1 X95.401 Y113.958 E15.36708
G1 X95.401 Y109.17 E15.60735
G1 X95.018 Y109.17 E15.62658
G1 X95.018 Y113.958 E15.86684
G1 X94.635 Y113.958 E15.88608
G1 X94.635 Y109.17 E16.12634
G1 X94.252 Y109.17 E16.14558
G1 X94.252 Y113.958 E16.38584
G1 X93.869 Y113.958 E16.40507
G1 X93.869 Y109.17 E16.64534
G1 X93.485 Y109.17 E16.66457
G1 X93.485 Y113.958 E16.90484
G1 X93.102 Y113.958 E16.92407
G1 X93.102 Y109.17 E17.16434
G1 X92.719 Y109.17 E17.18357
G1 X92.719 Y113.958 E17.42384
G1 X92.336 Y113.958 E17.44307
G1 X92.336 Y109.17 E17.68334
G1 X91.953 Y109.17 E17.70257
G1 X91.953 Y113.958 E17.94283
G1 X91.569 Y113.958 E17.96207
G1 X91.569 Y109.17 E18.20233
G1 X91.186 Y109.17 E18.22156
G1 X91.186 Y113.958 E18.46183
G1 X90.803 Y113.958 E18.48106
G1 X90.803 Y109.17 E18.72133
G1 X90.42 Y109.17 E18.74056
G1 X90.42 Y113.958 E18.98083
G1 X90.037 Y113.958 E19.00006
G1 X90.037 Y109.17 E19.24033
G1 X89.653 Y109.17 E19.25956
G1 X89.653 Y113.958 E19.49983
G1 X89.27 Y113.958 E19.51906
G1 X89.27 Y109.17 E19.75933
G1 X88.887 Y109.17 E19.77856
G1 X88.887 Y113.958 E20.01882
G1 X88.504 Y113.958 E20.03806
G1 X88.504 Y109.17 E20.27832
G1 X88.12 Y109.17 E20.29755
G1 X88.12 Y113.958 E20.53782
G1 X87.737 Y113.958 E20.55705
G1 X87.737 Y106.17 E20.94788
G1 X87.354 Y106.17 E20.96711
G1 X87.354 Y113.958 E21.35793
G1 X86.971 Y113.958 E21.37717
G1 X86.971 Y106.17 E21.76799
G1 X86.588 Y106.17 E21.78722
G1 X86.588 Y113.958 E22.17805
G1 X86.204 Y113.958 E22.19728
G1 X86.204 Y106.015 E22.59589
G1 E20.59589 F2400
G92 E0
G1 X96.551 Y93.813 F7800
G1 E2 F2400
G1 F2700
G1 X96.551 Y91.699 E2.1061
G1 X96.168 Y91.699 E2.12534
G1 X96.168 Y93.658 E2.22365
G1 X95.785 Y93.658 E2.24288
G1 X95.785 Y91.699 E2.3412
G1 X95.401 Y91.699 E2.36043
G1 X95.401 Y93.658 E2.45874
G1 X95.018 Y93.658 E2.47797
G1 X95.018 Y91.699 E2.57629
G1 X94.635 Y91.699 E2.59552
G1 X94.635 Y93.658 E2.69383
G1 X94.252 Y93.658 E2.71307
G1 X94.252 Y91.699 E2.81138
G1 X93.869 Y91.699 E2.83061
G1 X93.869 Y93.658 E2.92893
G1 X93.658 Y93.658 E2.93949
G1 X93.658 Y96.487 E3.08144
G1 X93.485 Y96.487 E3.09011
G1 X93.485 Y91.699 E3.33038
G1 X93.102 Y91.699 E3.34961
G1 X93.102 Y96.487 E3.58988
G1 X92.719 Y96.487 E3.60911
G1 X92.719 Y91.699 E3.84938
G1 X92.336 Y91.699 E3.86861
G1 X92.336 Y96.487 E4.10888
G1 X91.953 Y96.487 E4.12811
G1 X91.953 Y91.699 E4.36837
G1 X91.569 Y91.699 E4.38761
G1 X91.569 Y96.487 E4.62787
G1 X91.186 Y96.487 E4.64711
G1 X91.186 Y91.699 E4.88737
G1 X90.803 Y91.699 E4.9066
G1 X90.803 Y99.315 E5.28882
G1 X90.42 Y99.315 E5.30806
G1 X90.42 Y91.699 E5.69028
G1 X90.037 Y91.699 E5.70951
G1 X90.037 Y99.315 E6.09173
G1 X89.653 Y99.315 E6.11096
G1 X89.653 Y91.699 E6.49318
G1 X89.27 Y91.699 E6.51241
G1 X89.27 Y99.315 E6.89463
G1 X88.887 Y99.315 E6.91386
G1 X88.887 Y91.699 E7.29608
G1 X88.871 Y91.699 E7.2969
G1 X88.871 Y94.528 E7.43885
G1 X88.504 Y94.528 E7.45727
G1 X88.504 Y99.315 E7.69753
G1 X88.12 Y99.315 E7.71676
G1 X88.12 Y94.528 E7.95703
G1 X87.737 Y94.528 E7.97626
G1 X87.737 Y102.315 E8.36709
G1 X87.354 Y102.315 E8.38632
G1 X87.354 Y94.528 E8.77714
G1 X86.971 Y94.528 E8.79638
G1 X86.971 Y102.315 E9.1872
G1 X86.588 Y102.315 E9.20643
G1 X86.588 Y94.528 E9.59726
G1 X86.204 Y94.528 E9.61649
G1 X86.204 Y102.47 E10.0151
G1 E8.0151 F2400
G92 E0
G1 X95.934 Y102.471 F7800
G1 X104.07 Y102.667
G1 X104.066 Y102.471
G1 X113.796 Y102.47
G1 E2 F2400
G1 F2700
G1 X113.796 Y94.528 E2.39861
G1 X113.412 Y94.528 E2.41785
G1 X113.412 Y102.315 E2.80867
G1 X113.029 Y102.315 E2.8279
G1 X113.029 Y94.528 E3.21873
G1 X112.646 Y94.528 E3.23796
G1 X112.646 Y102.315 E3.62878
G1 X112.263 Y102.315 E3.64801
G1 X112.263 Y94.528 E4.03884
G1 X111.88 Y94.528 E4.05807
G1 X111.88 Y99.315 E4.29834
G1 X111.496 Y99.315 E4.31757
G1 X111.496 Y94.528 E4.55784
G1 X111.129 Y94.528 E4.57625
G1 X111.129 Y91.699 E4.7182
G1 X111.113 Y91.699 E4.71902
G1 X111.113 Y99.315 E5.10124
G1 X110.73 Y99.315 E5.12047
G1 X110.73 Y91.699 E5.50269
G1 X110.347 Y91.699 E5.52192
G1 X110.347 Y99.315 E5.90414
G1 X109.963 Y99.315 E5.92338
G1 X109.963 Y91.699 E6.3056
G1 X109.58 Y91.699 E6.32483
G1 X109.58 Y99.315 E6.70705
G1 X109.197 Y99.315 E6.72628
G1 X109.197 Y91.699 E7.1085
G1 X108.814 Y91.699 E7.12773
G1 X108.814 Y96.487 E7.368
G1 X108.431 Y96.487 E7.38723
G1 X108.431 Y91.699 E7.6275
G1 X108.047 Y91.699 E7.64673
G1 X108.047 Y96.487 E7.887
G1 X107.664 Y96.487 E7.90623
G1 X107.664 Y91.699 E8.14649
G1 X107.281 Y91.699 E8.16573
G1 X107.281 Y96.487 E8.40599
G1 X106.898 Y96.487 E8.42523
G1 X106.898 Y91.699 E8.66549
G1 X106.515 Y91.699 E8.68472
G1 X106.515 Y96.487 E8.92499
G1 X106.342 Y96.487 E8.93366
G1 X106.342 Y93.658 E9.07561
G1 X106.131 Y93.658 E9.08618
G1 X106.131 Y91.699 E9.18449
G1 X105.748 Y91.699 E9.20372
G1 X105.748 Y93.658 E9.30204
G1 X105.365 Y93.658 E9.32127
G1 X105.365 Y91.699 E9.41958
G1 X104.982 Y91.699 E9.43881
G1 X104.982 Y93.658 E9.53713
G1 X104.599 Y93.658 E9.55636
G1 X104.599 Y91.699 E9.65468
G1 X104.215 Y91.699 E9.67391
G1 X104.215 Y93.658 E9.77222
G1 X103.832 Y93.658 E9.79145
G1 X103.832 Y91.699 E9.88977
G1 X103.449 Y91.699 E9.909
G1 X103.449 Y93.813 E10.0151
G1 E8.0151 F2400
G92 E0
G1 X103.04 Y98.497 F7800
G1 E2 F2400
G1 F2700
G1 X103.492 Y98.682 E2.02452
G1 X104.27 Y99.083 E2.06843
G1 X104.678 Y99.355 E2.09306
G1 X105.1 Y99.68 E2.11977
G1 X105.224 Y99.797 E2.12831
G1 X104.498 Y99.797 E2.16475
G1 X103.849 Y99.298 E2.20582
