; generated by PrusaSlicer 2.4.1+win64 on 2022-07-11 at 10:21:48 UTC

; 

; external perimeters extrusion width = 0.45mm
; perimeters extrusion width = 0.45mm
; infill extrusion width = 0.45mm
; solid infill extrusion width = 0.45mm
; top infill extrusion width = 0.40mm
; support material extrusion width = 0.35mm
; first layer extrusion width = 0.42mm

M107
M190 S40 ; set bed temperature and wait for it to be reached
M104 S210 ; set temperature
;TYPE:Custom
G28 ; home all axes
G1 Z5 F5000 ; lift nozzle
M109 S210 ; set temperature and wait for it to be reached
G21 ; set units to millimeters
G90 ; use absolute coordinates
M82 ; use absolute distances for extrusion
G92 E0
; Filament gcode
M107
;LAYER_CHANGE
;Z:0.35
;HEIGHT:0.35
G1 Z.35 F7800
G1 E-2 F2400
G92 E0
G1 X83.901 Y84.002 F7800
G1 E2 F2400
;TYPE:Skirt/Brim
;WIDTH:0.42
G1 F2700
G1 X85.845 Y82.62 E2.11969
G1 X88.489 Y82.043 E2.25551
G1 X111.511 Y82.043 E3.41092
G1 X113.72 Y82.44 E3.52354
G1 X116.099 Y84.002 E3.66638
G1 X117.38 Y85.845 E3.779
G1 X117.957 Y88.489 E3.91482
G1 X117.957 Y111.388 E5.06404
G1 X117.56 Y113.597 E5.17667
G1 X116.469 Y115.481 E5.28596
G1 X114.807 Y116.99 E5.39858
G1 X112.725 Y117.826 E5.5112
G1 X111.44 Y117.957 E5.57603
G1 X88.489 Y117.957 E6.72785
G1 X86.28 Y117.56 E6.84047
G1 X84.002 Y116.099 E6.97629
G1 X82.62 Y114.155 E7.09598
G1 X82.043 Y111.511 E7.2318
G1 X82.043 Y88.489 E8.38721
G1 X82.44 Y86.28 E8.49983
G1 X83.869 Y84.053 E8.63264
G1 E6.63264 F2400
G92 E0
G1 X93.542 Y93.726 F7800
G1 E2 F2400
G1 F2700
G1 X93.759 Y93.509 E2.01542
G1 X93.823 Y93.483 E2.01886
G1 X106.177 Y93.483 E2.63888
G1 X106.241 Y93.509 E2.64232
G1 X106.491 Y93.759 E2.6601
G1 X106.517 Y93.823 E2.66354
G1 X106.517 Y106.177 E3.28356
G1 X106.491 Y106.241 E3.287
G1 X106.241 Y106.491 E3.30478
G1 X106.177 Y106.517 E3.30822
G1 X93.823 Y106.517 E3.92824
G1 X93.759 Y106.491 E3.93168
G1 X93.509 Y106.241 E3.94946
G1 X93.483 Y106.177 E3.9529
G1 X93.483 Y93.823 E4.57292
G1 X93.504 Y93.771 E4.57571
G1 X93.828 Y93.929 F7800
G1 F2700
G1 X93.929 Y93.828 E4.58288
G1 X106.071 Y93.828 E5.19228
G1 X106.172 Y93.929 E5.19945
G1 X106.172 Y106.071 E5.80885
G1 X106.071 Y106.172 E5.81602
G1 X93.929 Y106.172 E6.42542
G1 X93.828 Y106.071 E6.43259
G1 X93.828 Y93.989 E7.03898
G1 E5.03898 F2400
G92 E0
G1 X111.44 Y111.44 F7800
G1 E2 F2400
;TYPE:Support material
G1 F2700
G1 X88.56 Y111.44 E3.14823
G1 X88.56 Y88.56 E4.29647
G1 X111.44 Y88.56 E5.4447
G1 X111.44 Y111.388 E6.59034
G1 E4.59034 F2400
G92 E0
G1 X105.4 Y104.96 F7800
G1 X94.6 Y94.6
G1 X95.665 Y94.6
G1 X93.965 Y92.79
G1 E2 F2400
G1 F2700
G1 X93.229 Y93.046 E2.03908
G1 X92.79 Y93.952 E2.08962
G1 X92.79 Y106.035 E2.69605
G1 X93.046 Y106.771 E2.73513
G1 X93.952 Y107.21 E2.78566
G1 X106.035 Y107.21 E3.39209
G1 X106.771 Y106.954 E3.43117
G1 X107.21 Y106.048 E3.48171
G1 X107.21 Y93.965 E4.08814
G1 X106.954 Y93.229 E4.12722
G1 X106.048 Y92.79 E4.17775
G1 X94.016 Y92.79 E4.78158
G1 E2.78158 F2400
G92 E0
G1 X95.689 Y94.6 F7800
G1 X105.4 Y105.4
G1 X105.4 Y105.105
G1 X111.113 Y111.285
G1 E2 F2400
G1 F2700
G1 X111.113 Y88.871 E3.12487
G1 X110.73 Y88.871 E3.1441
G1 X110.73 Y111.129 E4.26118
G1 X110.347 Y111.129 E4.28041
G1 X110.347 Y88.871 E5.39749
G1 X109.963 Y88.871 E5.41672
G1 X109.963 Y111.129 E6.5338
G1 X109.58 Y111.129 E6.55303
G1 X109.58 Y88.871 E7.67011
G1 X109.197 Y88.871 E7.68934
G1 X109.197 Y111.129 E8.80642
G1 X108.814 Y111.129 E8.82565
G1 X108.814 Y88.871 E9.94273
G1 X108.431 Y88.871 E9.96196
G1 X108.431 Y111.129 E11.07904
G1 X108.047 Y111.129 E11.09827
G1 X108.047 Y88.871 E12.21535
G1 X107.664 Y88.871 E12.23458
G1 X107.664 Y111.129 E13.35166
G1 X107.281 Y111.129 E13.37089
G1 X107.281 Y106.614 E13.59751
G1 X106.994 Y107.205 E13.63051
G1 X106.898 Y107.239 E13.63564
G1 X106.898 Y111.129 E13.83088
G1 X106.515 Y111.129 E13.85012
G1 X106.515 Y107.372 E14.03868
G1 X106.131 Y107.505 E14.05904
G1 X106.131 Y111.129 E14.24092
G1 X105.748 Y111.129 E14.26015
G1 X105.748 Y107.52 E14.44127
G1 X105.365 Y107.52 E14.4605
G1 X105.365 Y111.129 E14.64162
G1 X104.982 Y111.129 E14.66085
G1 X104.982 Y107.52 E14.84197
G1 X104.599 Y107.52 E14.86121
G1 X104.599 Y111.129 E15.04233
G1 X104.215 Y111.129 E15.06156
G1 X104.215 Y107.52 E15.24268
G1 X103.832 Y107.52 E15.26191
G1 X103.832 Y111.129 E15.44303
G1 X103.449 Y111.129 E15.46226
G1 X103.449 Y107.52 E15.64339
G1 X103.066 Y107.52 E15.66262
G1 X103.066 Y111.129 E15.84374
G1 X102.682 Y111.129 E15.86297
G1 X102.682 Y107.52 E16.04409
G1 X102.299 Y107.52 E16.06332
G1 X102.299 Y111.129 E16.24444
G1 X101.916 Y111.129 E16.26368
G1 X101.916 Y107.52 E16.4448
G1 X101.533 Y107.52 E16.46403
G1 X101.533 Y111.129 E16.64515
G1 X101.15 Y111.129 E16.66438
G1 X101.15 Y107.52 E16.8455
G1 X100.766 Y107.52 E16.86473
G1 X100.766 Y111.129 E17.04586
G1 X100.383 Y111.129 E17.06509
G1 X100.383 Y107.52 E17.24621
G1 X100 Y107.52 E17.26544
G1 X100 Y111.129 E17.44656
G1 X99.617 Y111.129 E17.46579
G1 X99.617 Y107.52 E17.64691
G1 X99.234 Y107.52 E17.66615
G1 X99.234 Y111.129 E17.84727
G1 X98.85 Y111.129 E17.8665
G1 X98.85 Y107.52 E18.04762
G1 X98.467 Y107.52 E18.06685
G1 X98.467 Y111.129 E18.24797
G1 X98.084 Y111.129 E18.2672
G1 X98.084 Y107.52 E18.44833
G1 X97.701 Y107.52 E18.46756
G1 X97.701 Y111.129 E18.64868
G1 X97.318 Y111.129 E18.66791
G1 X97.318 Y107.52 E18.84903
G1 X96.934 Y107.52 E18.86826
G1 X96.934 Y111.129 E19.04938
G1 X96.551 Y111.129 E19.06862
G1 X96.551 Y107.52 E19.24974
G1 X96.168 Y107.52 E19.26897
G1 X96.168 Y111.129 E19.45009
G1 X95.785 Y111.129 E19.46932
G1 X95.785 Y107.52 E19.65044
G1 X95.401 Y107.52 E19.66967
G1 X95.401 Y111.129 E19.85079
G1 X95.018 Y111.129 E19.87003
G1 X95.018 Y107.52 E20.05115
G1 X94.635 Y107.52 E20.07038
G1 X94.635 Y111.129 E20.2515
G1 X94.252 Y111.129 E20.27073
G1 X94.252 Y107.52 E20.45185
G1 X93.869 Y107.515 E20.47109
G1 X93.869 Y111.129 E20.6525
G1 X93.485 Y111.129 E20.67173
G1 X93.485 Y107.329 E20.86246
G1 X93.102 Y107.143 E20.88383
G1 X93.102 Y111.129 E21.08387
G1 X92.719 Y111.129 E21.1031
G1 X92.719 Y106.777 E21.32153
G1 X92.48 Y106.088 E21.35814
G1 X92.48 Y93.881 E21.97077
G1 X92.719 Y93.386 E21.99834
G1 X92.719 Y88.871 E22.22496
G1 X93.102 Y88.871 E22.24419
G1 X93.102 Y92.761 E22.43943
G1 X93.485 Y92.628 E22.45979
G1 X93.485 Y88.871 E22.64836
G1 X93.869 Y88.871 E22.66759
G1 X93.869 Y92.495 E22.84947
G1 X93.912 Y92.48 E22.85178
G1 X94.252 Y92.48 E22.86883
G1 X94.252 Y88.871 E23.04995
G1 X94.635 Y88.871 E23.06918
G1 X94.635 Y92.48 E23.2503
G1 X95.018 Y92.48 E23.26953
G1 X95.018 Y88.871 E23.45065
G1 X95.401 Y88.871 E23.46988
G1 X95.401 Y92.48 E23.651
G1 X95.785 Y92.48 E23.67024
G1 X95.785 Y88.871 E23.85136
G1 X96.168 Y88.871 E23.87059
G1 X96.168 Y92.48 E24.05171
G1 X96.551 Y92.48 E24.07094
G1 X96.551 Y88.871 E24.25206
G1 X96.934 Y88.871 E24.27129
G1 X96.934 Y92.48 E24.45242
G1 X97.318 Y92.48 E24.47165
G1 X97.318 Y88.871 E24.65277
G1 X97.701 Y88.871 E24.672
G1 X97.701 Y92.48 E24.85312
G1 X98.084 Y92.48 E24.87235
G1 X98.084 Y88.871 E25.05347
G1 X98.467 Y88.871 E25.0727
G1 X98.467 Y92.48 E25.25382
G1 X98.85 Y92.48 E25.27306
G1 X98.85 Y88.871 E25.45418
G1 X99.234 Y88.871 E25.47341
G1 X99.234 Y92.48 E25.65453
G1 X99.617 Y92.48 E25.67376
G1 X99.617 Y88.871 E25.85488
G1 X100 Y88.871 E25.87411
G1 X100 Y92.48 E26.05523
G1 X100.383 Y92.48 E26.07447
G1 X100.383 Y88.871 E26.25559
G1 X100.766 Y88.871 E26.27482
G1 X100.766 Y92.48 E26.45594
G1 X101.15 Y92.48 E26.47517
G1 X101.15 Y88.871 E26.65629
G1 X101.533 Y88.871 E26.67552
G1 X101.533 Y92.48 E26.85664
G1 X101.916 Y92.48 E26.87588
G1 X101.916 Y88.871 E27.057
G1 X102.299 Y88.871 E27.07623
G1 X102.299 Y92.48 E27.25735
G1 X102.682 Y92.48 E27.27658
G1 X102.682 Y88.871 E27.4577
G1 X103.066 Y88.871 E27.47693
G1 X103.066 Y92.48 E27.65805
G1 X103.449 Y92.48 E27.67729
G1 X103.449 Y88.871 E27.85841
G1 X103.832 Y88.871 E27.87764
G1 X103.832 Y92.48 E28.05876
G1 X104.215 Y92.48 E28.07799
G1 X104.215 Y88.871 E28.25911
G1 X104.599 Y88.871 E28.27834
G1 X104.599 Y92.48 E28.45946
G1 X104.982 Y92.48 E28.4787
G1 X104.982 Y88.871 E28.65982
G1 X105.365 Y88.871 E28.67905
G1 X105.365 Y92.48 E28.86017
G1 X105.748 Y92.48 E28.8794
G1 X105.748 Y88.871 E29.06052
G1 X106.131 Y88.871 E29.07975
G1 X106.131 Y92.485 E29.26116
G1 X106.515 Y92.671 E29.28253
G1 X106.515 Y88.871 E29.47326
G1 X106.898 Y88.871 E29.49249
G1 X106.898 Y92.857 E29.69253
G1 X107.205 Y93.006 E29.70969
G1 X107.281 Y93.223 E29.72124
G1 X107.281 Y88.715 E29.94746
G1 E27.94746 F2400
G92 E0
G1 X103.384 Y94.6 F7800
G1 X94.6 Y105.4
G1 X96.232 Y105.4
G1 X92.336 Y111.285
G1 E2 F2400
G1 F2700
G1 X92.336 Y88.871 E3.12487
G1 X91.953 Y88.871 E3.1441
G1 X91.953 Y111.129 E4.26118
G1 X91.569 Y111.129 E4.28041
G1 X91.569 Y88.871 E5.39749
G1 X91.186 Y88.871 E5.41672
G1 X91.186 Y111.129 E6.5338
G1 X90.803 Y111.129 E6.55303
G1 X90.803 Y88.871 E7.67011
G1 X90.42 Y88.871 E7.68934
G1 X90.42 Y111.129 E8.80642
G1 X90.037 Y111.129 E8.82565
G1 X90.037 Y88.871 E9.94273
G1 X89.653 Y88.871 E9.96196
G1 X89.653 Y111.129 E11.07904
G1 X89.27 Y111.129 E11.09827
G1 X89.27 Y88.871 E12.21535
G1 X88.887 Y88.871 E12.23458
G1 X88.887 Y111.285 E13.35944
G1 E11.35944 F2400
G92 E0
G1 X94.21 Y105.79 F7800
G1 E2 F2400
;TYPE:External perimeter
G1 F2700
G1 X94.21 Y94.21 E2.58115
G1 X105.79 Y94.21 E3.16231
G1 X105.79 Y105.79 E3.74346
G1 X94.27 Y105.79 E4.3216
G1 X94.314 Y105.404 F7800
G1 X94.555 Y105.445
;TYPE:Perimeter
G1 F2700
G1 X94.555 Y94.555 E4.86814
G1 X105.445 Y94.555 E5.41467
G1 X105.445 Y105.445 E5.96121
G1 X94.615 Y105.445 E6.50473
G1 X94.827 Y105.186 F7800
;TYPE:Solid infill
G1 F2700
G1 X94.814 Y105.173 E6.50566
G1 X94.814 Y104.828 F7800
G1 F2700
G1 X95.172 Y104.828 E6.52363
G1 X95.172 Y105.186 E6.5416
G1 X95.516 Y105.186 F7800
G1 F2700
G1 X95.516 Y104.484 E6.57687
G1 X94.814 Y104.484 E6.61215
G1 X94.814 Y104.139 F7800
G1 F2700
G1 X95.861 Y104.139 E6.66473
G1 X95.861 Y105.186 E6.71732
G1 X96.206 Y105.186 F7800
G1 F2700
G1 X96.206 Y103.794 E6.78721
G1 X94.814 Y103.794 E6.8571
G1 E4.8571 F2400
G92 E0
G1 X94.814 Y101.772 F7800
G1 E2 F2400
G1 F2700
G1 X96.586 Y100 E2.12578
G1 X94.814 Y98.228 E2.25156
G1 X94.814 Y98.716 F7800
G1 F2700
G1 X96.098 Y100 E2.34273
G1 X94.814 Y101.284 E2.43389
G1 X94.814 Y100.797 F7800
G1 F2700
G1 X95.61 Y100 E2.49044
G1 X94.814 Y99.203 E2.54699
G1 X94.814 Y99.691 F7800
G1 F2700
G1 X95.123 Y100 E2.56892
G1 X94.814 Y100.309 E2.59085
G1 E.59085 F2400
G92 E0
G1 X100 Y100 F7800
G1 E2 F2400
G1 F2700
G1 X99.655 Y100.345 E2.02448
G1 X99.167 Y100.345 E2.04896
G1 X99.512 Y100 E2.07343
G1 X99.167 Y99.655 E2.09791
G1 X99.655 Y99.655 E2.12239
G1 X99.655 Y99.167 E2.14687
G1 X100 Y99.512 E2.17135
G1 X100.345 Y99.167 E2.19582
G1 X100.345 Y99.655 E2.2203
G1 X100.833 Y99.655 E2.24478
G1 X100.488 Y100 E2.26926
G1 X100.833 Y100.345 E2.29374
G1 X100.345 Y100.345 E2.31821
G1 X100.345 Y100.833 E2.34269
G1 X100 Y100.488 E2.36717
G1 X99.31 Y101.178 E2.41613
G1 X99.31 Y100.69 E2.4406
G1 X98.335 Y100.69 E2.48956
G1 X99.025 Y100 E2.53852
G1 X98.335 Y99.31 E2.58747
G1 X99.31 Y99.31 E2.63643
G1 X99.31 Y98.335 E2.68538
G1 X100 Y99.025 E2.73434
G1 X100.69 Y98.335 E2.7833
G1 X100.69 Y99.31 E2.83225
G1 X101.665 Y99.31 E2.88121
G1 X100.975 Y100 E2.93016
G1 X101.665 Y100.69 E2.97912
G1 X100.69 Y100.69 E3.02808
G1 X100.69 Y101.665 E3.07703
G1 X100 Y100.975 E3.12599
G1 X98.965 Y102.01 E3.19942
G1 X98.965 Y101.035 E3.24838
G1 X97.502 Y101.035 E3.32181
G1 X98.537 Y100 E3.39525
G1 X97.502 Y98.965 E3.46868
G1 X98.965 Y98.965 E3.54211
G1 X98.965 Y97.502 E3.61555
G1 X100 Y98.537 E3.68898
G1 X101.035 Y97.502 E3.76242
G1 X101.035 Y98.965 E3.83585
G1 X102.498 Y98.965 E3.90928
G1 X101.463 Y100 E3.98272
G1 X102.498 Y101.035 E4.05615
G1 X101.035 Y101.035 E4.12959
G1 X101.035 Y102.498 E4.20302
G1 X100 Y101.463 E4.27646
G1 X98.62 Y102.843 E4.37437
G1 X98.62 Y101.38 E4.4478
G1 X96.669 Y101.38 E4.54571
G1 X98.049 Y100 E4.64363
G1 X96.669 Y98.62 E4.74154
G1 X98.62 Y98.62 E4.83945
G1 X98.62 Y96.669 E4.93736
G1 X100 Y98.049 E5.03527
G1 X101.38 Y96.669 E5.13319
G1 X101.38 Y98.62 E5.2311
G1 X103.331 Y98.62 E5.32901
G1 X101.951 Y100 E5.42692
G1 X103.331 Y101.38 E5.52483
G1 X101.38 Y101.38 E5.62275
G1 X101.38 Y103.331 E5.72066
G1 X100 Y101.951 E5.81857
G1 X98.276 Y103.675 E5.94096
G1 X98.276 Y101.724 E6.03887
G1 X95.837 Y101.724 E6.16126
G1 X97.561 Y100 E6.28365
G1 X95.837 Y98.276 E6.40604
G1 X98.276 Y98.276 E6.52843
G1 X98.276 Y95.837 E6.65082
G1 X100 Y97.561 E6.77321
G1 X101.724 Y95.837 E6.8956
G1 X101.724 Y98.276 E7.01799
G1 X104.163 Y98.276 E7.14038
G1 X102.439 Y100 E7.26277
G1 X104.163 Y101.724 E7.38516
G1 X101.724 Y101.724 E7.50755
G1 X101.724 Y104.163 E7.62994
G1 X100 Y102.439 E7.75233
G1 X97.931 Y104.508 E7.8992
G1 X97.931 Y102.069 E8.02159
G1 X95.004 Y102.069 E8.16846
G1 X97.074 Y100 E8.31533
G1 X95.004 Y97.931 E8.4622
G1 X97.931 Y97.931 E8.60906
G1 X97.931 Y95.004 E8.75593
G1 X100 Y97.074 E8.9028
G1 X102.069 Y95.004 E9.04967
G1 X102.069 Y97.931 E9.19654
G1 X104.996 Y97.931 E9.3434
G1 X102.926 Y100 E9.49027
G1 X104.996 Y102.069 E9.63714
G1 X102.069 Y102.069 E9.78401
G1 X102.069 Y104.996 E9.93088
G1 X100 Y102.926 E10.07774
G1 X97.74 Y105.186 E10.23814
G1 X97.586 Y105.186 F7800
G1 F2700
G1 X97.586 Y102.414 E10.37727
G1 X94.814 Y102.414 E10.5164
G1 X94.814 Y102.759 F7800
G1 F2700
G1 X97.241 Y102.759 E10.63822
G1 X97.241 Y105.186 E10.76003
G1 X96.896 Y105.186 F7800
G1 F2700
G1 X96.896 Y103.104 E10.86454
G1 X94.814 Y103.104 E10.96905
G1 X94.814 Y103.449 F7800
G1 F2700
G1 X96.551 Y103.449 E11.05626
G1 X96.551 Y105.186 E11.14346
G1 E9.14346 F2400
G92 E0
G1 X100.309 Y105.186 F7800
G1 E2 F2400
G1 F2700
G1 X100 Y104.877 E2.02193
G1 X99.691 Y105.186 E2.04386
G1 X99.203 Y105.186 F7800
G1 F2700
G1 X100 Y104.39 E2.10041
G1 X100.797 Y105.186 E2.15695
G1 X101.284 Y105.186 F7800
G1 F2700
G1 X100 Y103.902 E2.24812
G1 X98.716 Y105.186 E2.33928
G1 X98.228 Y105.186 F7800
G1 F2700
G1 X100 Y103.414 E2.46507
G1 X101.772 Y105.186 E2.59085
G1 E.59085 F2400
G92 E0
G1 X104.484 Y105.186 F7800
G1 E2 F2400
G1 F2700
G1 X104.484 Y104.484 E2.03528
G1 X105.186 Y104.484 E2.07055
G1 X105.186 Y104.828 F7800
G1 F2700
G1 X104.828 Y104.828 E2.08852
G1 X104.828 Y105.186 E2.10649
G1 X105.173 Y105.186 F7800
G1 F2700
G1 X105.186 Y105.173 E2.10742
G1 X105.186 Y104.139 F7800
G1 F2700
G1 X104.139 Y104.139 E2.16
G1 X104.139 Y105.186 E2.21259
G1 X103.794 Y105.186 F7800
G1 F2700
G1 X103.794 Y103.794 E2.28248
G1 X105.186 Y103.794 E2.35237
G1 X105.186 Y103.449 F7800
G1 F2700
G1 X103.449 Y103.449 E2.43957
G1 X103.449 Y105.186 E2.52677
G1 X103.104 Y105.186 F7800
G1 F2700
G1 X103.104 Y103.104 E2.63128
G1 X105.186 Y103.104 E2.73579
G1 X105.186 Y102.759 F7800
G1 F2700
G1 X102.759 Y102.759 E2.85761
G1 X102.759 Y105.186 E2.97943
G1 X102.414 Y105.186 F7800
G1 F2700
G1 X102.414 Y102.414 E3.11856
G1 X105.186 Y102.414 E3.25769
G1 E1.25769 F2400
G92 E0
G1 X105.186 Y99.691 F7800
G1 E2 F2400
G1 F2700
G1 X104.877 Y100 E2.02193
G1 X105.186 Y100.309 E2.04386
G1 X105.186 Y100.797 F7800
G1 F2700
G1 X104.39 Y100 E2.10041
G1 X105.186 Y99.203 E2.15695
G1 X105.186 Y98.716 F7800
G1 F2700
G1 X103.902 Y100 E2.24812
G1 X105.186 Y101.284 E2.33928
G1 X105.186 Y101.772 F7800
G1 F2700
G1 X103.414 Y100 E2.46507
G1 X105.186 Y98.228 E2.59085
G1 E.59085 F2400
G92 E0
G1 X105.186 Y94.827 F7800
G1 E2 F2400
G1 F2700
G1 X105.173 Y94.814 E2.00093
G1 X104.828 Y94.814 F7800
G1 F2700
G1 X104.828 Y95.172 E2.0189
G1 X105.186 Y95.172 E2.03687
G1 X105.186 Y95.516 F7800
G1 F2700
G1 X104.484 Y95.516 E2.07214
G1 X104.484 Y94.814 E2.10742
G1 X104.139 Y94.814 F7800
G1 F2700
G1 X104.139 Y95.861 E2.16
G1 X105.186 Y95.861 E2.21259
G1 X105.186 Y96.206 F7800
G1 F2700
G1 X103.794 Y96.206 E2.28248
G1 X103.794 Y94.814 E2.35237
G1 X103.449 Y94.814 F7800
G1 F2700
G1 X103.449 Y96.551 E2.43957
G1 X105.186 Y96.551 E2.52677
G1 X105.186 Y96.896 F7800
G1 F2700
G1 X103.104 Y96.896 E2.63128
G1 X103.104 Y94.814 E2.73579
G1 X102.759 Y94.814 F7800
G1 F2700
G1 X102.759 Y97.241 E2.85761
G1 X105.186 Y97.241 E2.97943
G1 X105.186 Y97.586 F7800
G1 F2700
G1 X102.414 Y97.586 E3.11856
G1 X102.414 Y94.814 E3.25769
G1 E1.25769 F2400
G92 E0
G1 X99.691 Y94.814 F7800
G1 E2 F2400
G1 F2700
G1 X100 Y95.123 E2.02193
G1 X100.309 Y94.814 E2.04386
G1 X100.797 Y94.814 F7800
G1 F2700
G1 X100 Y95.61 E2.10041
